<?xml version="1.0" encoding="UTF-8"?>
<map version="1.10" tiledversion="1.11.1" orientation="orthogonal" renderorder="right-down" width="70" height="52" tilewidth="16" tileheight="16" infinite="0" nextlayerid="20" nextobjectid="2">
 <properties>
  <property name="AmbientLight" value="80 80 40" />
  <property name="ViewportFollowPlayer" type="bool" value="true" />
  <property name="Warp" value="-1 26 Custom_MouseLivingRoom 38 16 -1 27 Custom_MouseLivingRoom 38 17" />
 </properties>
 <tileset firstgid="1" name="townInterior" tilewidth="16" tileheight="16" tilecount="2176" columns="32">
  <image source=".townInterior.png" width="512" height="1088" />
 </tileset>
 <tileset firstgid="2177" name="townInterior_2" tilewidth="16" tileheight="16" tilecount="1312" columns="32">
  <image source=".townInterior_2.png" width="512" height="656" />
 </tileset>
 <tileset firstgid="3489" name="walls_and_floors" tilewidth="16" tileheight="16" tilecount="688" columns="16">
  <image source=".walls_and_floors.png" width="256" height="688" />
 </tileset>
 <tileset firstgid="4177" name="farmhouse_tiles" tilewidth="16" tileheight="16" tilecount="264" columns="12">
  <image source=".farmhouse_tiles.png" width="192" height="352" />
 </tileset>
 <tileset firstgid="4441" name="CarolineGreenhouseTiles" tilewidth="16" tileheight="16" tilecount="128" columns="8">
  <image source=".CarolineGreenhouseTiles.png" width="128" height="256" />
 </tileset>
 <layer id="1" name="Back" width="70" height="52">
  <data encoding="csv">
0,0,0,0,0,0,0,0,0,0,0,0,0,0,0,0,0,0,0,0,0,0,0,0,0,0,0,0,0,0,0,0,0,0,0,0,0,0,0,0,0,0,0,0,0,0,0,0,0,0,0,0,0,0,0,0,0,0,0,0,0,0,0,0,0,0,0,0,0,0,
0,0,3633,3633,3633,3633,3633,3633,3633,3633,3633,0,0,3540,3540,3540,3540,3540,3540,3540,3540,3540,0,0,3591,3591,3591,3591,3591,3591,3591,3591,3591,0,0,3685,3685,3685,3685,3685,3685,3685,3685,3685,0,0,3547,3547,3547,3547,3547,3547,3547,3547,3547,0,0,3730,3730,3730,3730,3730,3730,3730,3730,3730,0,0,0,0,
0,0,3649,3649,3649,3649,3649,3649,3649,3649,3649,0,0,3556,3556,3556,3556,3556,3556,3556,3556,3556,0,0,3607,3607,3607,3607,3607,3607,3607,3607,3607,0,0,3701,3701,3701,3701,3701,3701,3701,3701,3701,0,0,3563,3563,3563,3563,3563,3563,3563,3563,3563,0,0,3746,3746,3746,3746,3746,3746,3746,3746,3746,0,0,0,0,
0,0,3665,3665,3665,3665,3665,3665,3665,3665,3665,3540,3540,3572,3572,3572,3572,3572,3572,3572,3572,3572,0,0,3623,3623,3623,3623,3623,3623,3623,3623,3623,0,0,3717,3717,3717,3717,3717,3717,3717,3717,3717,0,0,3579,3579,3579,3579,3579,3579,3579,3579,3579,3730,3730,3762,3762,3762,3762,3762,3762,3762,3762,3762,0,0,0,0,
0,0,3889,3890,3889,3890,3889,3890,3889,3890,3889,3556,3556,3894,3893,3894,3893,3894,3893,3894,3893,3894,0,0,3923,3924,3923,3924,3923,3924,3923,3924,3923,0,0,3858,3857,3858,3857,3858,3857,3858,3857,3858,0,0,4049,4050,4049,4050,4049,4050,4049,4050,4049,3746,3746,4120,4119,4120,4119,4120,4119,4120,4119,4120,0,0,0,0,
0,0,3905,3906,3905,3906,3905,3906,3905,3906,3905,3572,3572,3910,3909,3910,3909,3910,3909,3910,3909,3910,0,0,3939,3940,3939,3940,3939,3940,3939,3940,3939,0,0,3874,3873,3874,3873,3874,3873,3874,3873,3874,0,0,4065,4066,4065,4066,4065,4066,4065,4066,4065,3762,3762,4136,4135,4136,4135,4136,4135,4136,4135,4136,0,0,0,0,
0,0,3889,3890,3889,3890,3889,3890,3889,3890,3889,3894,3893,3894,3893,3894,3893,3894,3893,3894,3893,3894,0,0,3923,3924,3923,3924,3923,3924,3923,3924,3923,0,0,3858,3857,3858,3857,3858,3857,3858,3857,3858,0,0,4049,4050,4049,4050,4049,4050,4049,4050,4049,4120,4119,4120,4119,4120,4119,4120,4119,4120,4119,4120,0,0,0,0,
0,0,3905,3906,3905,3906,3905,3906,3905,3906,3905,3910,3909,3910,3909,3910,3909,3910,3909,3910,3909,3910,0,0,3939,3940,3939,3940,3939,3940,3939,3940,3939,0,0,3874,3873,3874,3873,3874,3873,3874,3873,3874,0,0,4065,4066,4065,4066,4065,4066,4065,4066,4065,4136,4135,4136,4135,4136,4135,4136,4135,4136,4135,4136,0,0,0,0,
0,0,3889,3890,3889,3890,3889,3890,3889,3890,3889,0,0,3894,3893,3894,3893,3894,3893,3894,3893,3894,0,0,3923,3924,3923,3924,3923,3924,3923,3924,3923,0,0,3858,3857,3858,3857,3858,3857,3858,3857,3858,0,0,4049,4050,4049,4050,4049,4050,4049,4050,4049,0,0,4120,4119,4120,4119,4120,4119,4120,4119,4120,0,0,0,0,
0,0,0,0,0,3854,3853,0,0,0,0,0,0,0,0,0,0,0,3909,3910,0,0,0,0,0,0,0,3940,3939,0,0,0,0,0,0,0,0,0,3873,3874,0,0,0,0,0,0,0,0,0,4066,4065,0,0,0,0,0,0,0,0,0,3949,3950,0,0,0,0,0,0,0,0,
0,0,3638,3638,3638,3838,3837,3638,3638,3638,3638,3638,3638,3638,0,0,3501,3501,3893,3894,3501,3501,3501,3501,3501,3501,3501,3924,3923,3501,3501,3501,3501,93,3501,3501,3501,3501,3857,3858,3501,3501,3501,3501,3501,3501,3501,3501,3501,4050,4049,3501,3501,3501,0,0,3501,3501,3501,3501,3933,3934,3501,3501,3501,3501,3501,3501,0,0,
0,0,3654,3654,3654,3854,3853,3654,3654,3654,3654,3654,3654,3654,0,0,3517,3517,3909,3910,3517,3517,3517,3517,3517,3517,3517,3940,3939,3517,3517,3517,3517,125,3517,3517,3517,3517,3873,3874,3517,3517,3517,3517,3517,3517,3517,3517,3517,4066,4065,3517,3517,3517,0,0,3517,3517,3517,3517,3949,3950,3517,3517,3517,3517,3517,3517,0,0,
0,0,3670,3670,3670,3838,3837,3670,3670,3670,3670,3670,3670,3670,0,0,3533,3533,3893,3894,3533,3533,3533,3533,3533,3533,3533,3924,3923,3533,3533,3533,3533,125,3533,3533,3533,3533,3857,3858,3533,3533,3533,3533,3533,3533,3533,3533,3533,4050,4049,3533,3533,3533,0,0,3533,3533,3533,3533,3933,3934,3533,3533,3533,3533,3533,3533,0,0,
0,0,3853,3854,3853,3854,3853,3854,3853,3854,3853,3854,3853,3854,3638,3638,3877,3878,3877,3878,3877,3878,3877,3878,3877,3878,3877,3878,3877,3878,3877,3878,3877,3878,3877,3878,3877,3878,3877,3878,3877,3878,3877,3878,3877,3878,3877,3878,3877,3878,3877,3878,3877,3878,0,0,3949,3950,3949,3950,3949,3950,3949,3950,3949,3950,3949,3950,0,0,
0,0,3837,3838,3837,3838,3837,3838,3837,3838,3837,3838,3837,3838,3654,3654,3861,3862,3861,3862,3861,3862,3861,3862,3861,3862,3861,3862,3861,3862,3861,3862,3861,3862,3861,3862,3861,3862,3861,3862,3861,3862,3861,3862,3861,3862,3861,3862,3861,3862,3861,3862,3861,3862,3501,3501,3933,3934,3933,3934,3933,3934,3933,3934,3933,3934,3933,3934,0,0,
0,0,3853,3854,3853,3854,3853,3854,3853,3854,3853,3854,3853,3854,3670,3670,3877,3878,0,0,0,0,0,0,0,0,0,0,0,0,0,0,0,0,3917,3918,0,0,0,0,0,0,0,0,0,0,0,0,0,0,0,0,3877,3878,3517,3517,3949,3950,3949,3950,3949,3950,3949,3950,3949,3950,3949,3950,0,0,
0,0,3837,3838,3837,3838,3837,3838,3837,3838,3837,3838,3837,3838,3837,3838,3861,3862,0,0,0,0,3682,3682,3682,3682,3682,3682,3682,3682,3682,3682,3682,3682,3901,3902,3682,3682,3682,3682,3682,3682,3682,3682,3682,3682,3682,3682,0,0,0,0,3861,3862,3533,3533,3933,3934,3933,3934,3933,3934,3933,3934,3933,3934,3933,3934,0,0,
0,0,3853,3854,3853,3854,3853,3854,3853,3854,3853,3854,3853,3854,3853,3854,3877,3878,0,0,0,0,3698,3698,3698,3698,3698,3698,3698,3698,3698,3698,3698,3698,3917,3918,3698,3698,3698,3698,3698,3698,3698,3698,3698,3698,3698,3698,0,0,0,0,3877,3878,3949,3950,3949,3950,3949,3950,3949,3950,3949,3950,3949,3950,3949,3950,0,0,
0,0,3837,249,250,250,250,250,250,250,251,3838,3837,3838,0,0,3861,3862,0,0,0,0,3714,3714,3714,3714,3714,3714,3714,3714,3714,3714,3714,3714,3901,3902,3714,3714,3714,3714,3714,3714,3714,3714,3714,3714,3714,3714,0,0,0,0,3861,3862,3933,3934,3933,3934,3933,3934,1300,1301,1302,1303,3933,3934,3933,3934,0,0,
0,0,3853,281,282,282,282,282,282,282,283,3854,3853,3854,0,0,3877,3878,0,0,0,0,3917,3918,3917,3918,3917,3918,3917,3918,3917,3918,3917,3918,3917,3918,3917,3918,3917,3918,3917,3918,3917,3918,3917,3918,3917,3918,0,0,0,0,3877,3878,0,0,3949,3950,3949,3950,1332,1333,1334,1335,3949,3950,3949,3950,0,0,
0,0,3837,3838,3837,3838,3837,3838,3837,3838,3837,3838,3837,3838,0,0,3861,3862,0,0,0,0,3901,3902,3901,3902,3901,3902,3901,3902,3901,3902,3901,3902,3901,3902,3901,3902,3901,3902,3901,3902,3901,3902,3901,3902,3901,3902,0,0,0,0,3861,3862,0,0,3933,3934,3933,3934,1364,1365,1366,1367,3933,3934,3933,3934,0,0,
0,0,3853,3854,3853,3854,3853,3854,3853,3854,3853,3854,3853,3854,0,0,3877,3878,0,0,0,0,3917,3918,3917,3918,3917,3918,3917,3918,3917,3918,3917,3918,3917,3918,3917,3918,3917,3918,3917,3918,3917,3918,3917,3918,3917,3918,0,0,0,0,3877,3878,0,0,3949,3950,3949,3950,3949,3950,3949,3950,3949,3950,3949,3950,0,0,
0,0,0,0,0,0,3837,3838,0,0,0,0,0,0,0,0,3861,3862,0,0,0,0,3901,3902,3901,3902,3901,3902,3901,3902,3901,3902,3901,3902,3901,3902,3901,3902,3901,3902,3901,3902,3901,3902,3901,3902,3901,3902,0,0,0,0,3861,3862,0,0,3933,3934,3933,3934,3933,3934,3933,3934,3933,3934,3933,3934,0,0,
3501,3501,3501,3501,3501,3501,3853,3854,3501,3501,3501,3501,3501,3501,3501,3501,3877,3878,3682,3682,3682,3682,3917,3918,3917,3918,3917,3918,3917,3918,3917,3918,3917,3918,3917,3918,3917,3918,3917,3918,3917,3918,3917,3918,3917,3918,3917,3918,3682,3682,3682,3682,3877,3878,0,0,3949,3950,3949,3950,3949,3950,3949,3950,3949,3950,3949,3950,0,0,
3517,3517,3517,3517,3517,3517,3837,3838,3517,3517,3517,3517,3517,3517,3517,3517,3861,3862,3698,3698,3698,3698,3901,3902,3901,3902,3901,3902,3901,3902,3901,3902,3901,3902,3901,3902,3901,3902,3901,3902,3901,3902,3901,3902,3901,3902,3901,3902,3698,3698,3698,3698,3861,3862,0,0,3933,3934,3933,3934,3933,3934,3933,3934,3933,3934,3933,3934,0,0,
3533,3533,3533,3533,3533,3533,3853,3854,3533,3533,3533,3533,3533,3533,3533,3533,3877,3878,3714,3714,3714,3714,3917,3918,3917,3918,3917,3918,3917,3918,3917,3918,3917,3918,3917,3918,3917,3918,3917,3918,3917,3918,3917,3918,3917,3918,3917,3918,3714,3714,3714,3714,3877,3878,0,0,0,0,0,0,0,0,0,0,0,0,0,0,0,0,
3861,3862,3861,3862,3861,3862,3861,3862,3861,3862,3861,3862,3861,3862,3861,3862,3861,3862,3901,3902,3901,3902,3901,3902,3901,3902,3901,3902,3901,3902,3901,3902,3901,3902,3901,3902,3901,3902,3901,3902,3901,3902,3901,3902,3901,3902,3901,3902,3901,3902,3901,3902,3861,3862,0,0,3540,3540,3540,3540,3540,3540,3540,3540,3540,3540,3540,3540,0,0,
3877,3878,3877,3878,3877,3878,3877,3878,3877,3878,3877,3878,3877,3878,3877,3878,3877,3878,3917,3918,3917,3918,3917,3918,3917,3918,3917,3918,3917,3918,3917,3918,3917,3918,3917,3918,3917,3918,3917,3918,3917,3918,3917,3918,3917,3918,3917,3918,3917,3918,3917,3918,3877,3878,0,0,3556,3556,3556,3556,3556,3556,3556,3556,3556,3556,3556,3556,0,0,
0,0,0,0,0,0,3921,3922,0,0,0,0,0,0,0,0,3861,3862,0,0,0,0,3901,3902,3901,3902,3901,3902,3901,3902,3901,3902,3901,3902,3901,3902,3901,3902,3901,3902,3901,3902,3901,3902,3901,3902,3901,3902,0,0,0,0,3861,3862,0,0,3572,3572,3572,3572,3572,3572,3572,3572,3572,3572,3572,3572,0,0,
0,0,3778,3778,3778,3778,3937,3938,3778,3778,3778,3778,3778,3778,0,0,3877,3878,0,0,0,0,3917,3918,3917,3918,3917,3918,3917,3918,3917,3918,3917,3918,3917,3918,3917,3918,3917,3918,3917,3918,3917,3918,3917,3918,3917,3918,0,0,0,0,3877,3878,0,0,4037,4038,4037,4038,4037,4038,4037,1049,1049,1049,2511,4038,0,0,
0,0,3794,3794,3794,3794,3921,3922,3794,3794,3794,3794,3794,3794,0,0,3861,3862,0,0,0,0,3901,3902,3901,3902,3901,3902,3901,3902,3901,3902,3901,3902,3901,3902,3901,3902,3901,3902,3901,3902,3901,3902,3901,3902,3901,3902,0,0,0,0,3861,3862,3540,3540,4021,4022,4021,4022,4021,4022,4021,1081,1081,1081,2511,4022,0,0,
0,0,3810,3810,3810,3810,3937,3938,3810,3810,3810,3810,3810,3810,0,0,3877,3878,0,0,0,0,3917,3918,3917,3918,3917,3918,3917,3918,3917,3918,3917,3918,3917,3918,3917,3918,3917,3918,3917,3918,3917,3918,3917,3918,3917,3918,0,0,0,0,3877,3878,3556,3556,4037,4038,4037,4038,4037,4038,4037,1081,1081,1081,2511,4038,0,0,
0,0,3921,3922,3921,3922,3921,3922,3921,3922,3921,3922,3921,3922,0,0,3861,3862,0,0,0,0,3901,3902,3901,3902,3901,3902,3901,3902,3901,3902,3901,3902,3901,3902,3901,3902,3901,3902,3901,3902,3901,3902,3901,3902,3901,3902,0,0,0,0,3861,3862,3572,3572,4021,4022,4021,4022,4021,4022,4021,1081,1081,1081,2511,4022,0,0,
0,0,3937,3938,3937,3938,3937,3938,3937,3938,3937,3938,3937,3938,3778,3778,3877,3878,0,0,0,0,3917,3918,3917,3918,3917,3918,3917,3918,3917,3918,3917,3918,3917,3918,3917,3918,3917,3918,3917,3918,3917,3918,3917,3918,3917,3918,0,0,0,0,3877,3878,4037,4038,4037,4038,4037,4038,4037,4038,4037,1081,1081,1081,2511,4038,0,0,
0,0,3921,3922,3921,3922,3921,3922,3921,3922,3921,3922,3921,3922,3794,3794,3861,3862,0,0,0,0,3901,3902,3901,3902,3901,3902,3901,3902,3901,3902,3901,3902,3901,3902,3901,3902,3901,3902,3901,3902,3901,3902,3901,3902,3901,3902,0,0,0,0,3861,3862,4021,4022,4021,4022,4021,4022,4021,4022,4021,4022,4021,4022,4021,4022,0,0,
0,0,3937,3938,3937,3938,3937,3938,3937,3938,3937,3938,3937,3938,3810,3810,3877,3878,0,0,0,0,0,0,0,0,0,0,0,0,0,0,0,0,3917,3918,0,0,0,0,0,0,0,0,0,0,0,0,0,0,0,0,3877,3878,0,0,4037,4038,4037,4038,4037,4038,4037,4038,4037,4038,4037,4038,0,0,
0,0,3921,3922,3921,3922,3921,3922,3921,3922,3921,3922,3921,3922,3921,3922,3861,3862,3501,3501,3501,3501,3501,3501,3501,3501,3501,3501,3501,3501,3501,3501,3501,3501,3901,3902,3501,3501,3501,3501,3501,3501,3501,3501,3501,3501,3501,3501,3501,3501,3501,3501,3861,3862,0,0,4021,4022,4021,4022,4021,4022,4021,4022,4021,4022,4021,4022,0,0,
0,0,3937,249,250,250,250,250,250,250,251,3938,3937,3938,3937,3938,3877,3878,3517,3517,3517,3517,3517,3517,3517,3517,3517,3517,3517,3517,3517,3517,3517,3517,3917,3918,3517,3517,3517,3517,3517,3517,3517,3517,3517,3517,3517,3517,3517,3517,3517,3517,3877,3878,0,0,4037,4038,4037,4038,4037,4038,4037,4038,4037,4038,4037,4038,0,0,
0,0,3921,281,282,282,282,282,282,282,283,3922,3921,3922,0,0,3861,3862,3533,3533,3533,3533,3533,3533,3533,3533,3533,3533,3533,3533,3533,3533,3533,3533,3901,3902,3533,3533,3533,3533,3533,3533,3533,3533,3533,3533,3533,3533,3533,3533,3533,3533,3861,3862,0,0,4021,4022,4021,4022,4021,4022,4021,4022,4021,4022,4021,4022,0,0,
0,0,3937,3938,3937,3938,3937,3938,3937,3938,3937,3938,3937,3938,0,0,3877,3878,3877,3878,3877,3878,3877,3878,3877,3878,3877,3878,3877,3878,3877,3878,3877,3878,3877,3878,3877,3878,3877,3878,3877,3878,3877,3878,3877,3878,3877,3878,3877,3878,3877,3878,3877,3878,0,0,4037,4038,4037,4038,4037,4038,4037,4038,4037,4038,4037,4038,0,0,
0,0,3921,3922,3921,3922,3921,3922,3921,3922,3921,3922,3921,3922,0,0,3861,3862,3861,3862,3861,3862,3861,3862,3861,3862,3861,3862,3861,3862,3861,3862,3861,3862,3861,3862,3861,3862,3861,3862,3861,3862,3861,3862,3861,3862,3861,3862,3861,3862,3861,3862,3861,3862,0,0,4021,4022,4021,4022,4021,4022,4021,4022,4021,4022,4021,4022,0,0,
0,0,0,0,0,0,3937,3938,0,0,0,0,0,0,0,0,0,0,3949,3950,0,0,0,0,0,0,0,0,3939,3940,0,0,0,0,0,0,0,0,0,3874,3873,0,0,0,0,0,0,0,0,0,4069,4070,0,0,0,0,0,0,0,0,0,4038,4037,0,0,0,0,0,0,0,
0,0,0,3744,3744,3744,3921,3922,3744,3744,3744,3744,0,0,3729,3729,3729,3729,3933,3934,3729,3729,3729,0,0,3787,3787,3787,3923,3924,3787,3787,3787,3787,0,0,3498,3498,3498,3858,3857,3498,3498,3498,3498,0,0,3743,3743,3743,4053,4054,3743,3743,3743,3743,0,0,3683,3683,3683,4022,4021,3683,3683,3683,3683,0,0,0,
0,0,0,3760,3760,3760,3937,3938,3760,3760,3760,3760,0,0,3745,3745,3745,3745,3949,3950,3745,3745,3745,0,0,3803,3803,3803,3939,3940,3803,3803,3803,3803,0,0,3514,3514,3514,3874,3873,3514,3514,3514,3514,0,0,3759,3759,3759,4069,4070,3759,3759,3759,3759,0,0,3699,3699,3699,4038,4037,3699,3699,3699,3699,0,0,0,
0,0,0,3776,3776,3776,3921,3922,3776,3776,3776,3776,3729,3729,3761,3761,3761,3761,3933,3934,3761,3761,3761,0,0,3819,3819,3819,3923,3924,3819,3819,3819,3819,0,0,3530,3530,3530,3858,3857,3530,3530,3530,3530,0,0,3775,3775,3775,4053,4054,3775,3775,3775,3775,3683,3683,3715,3715,3715,4022,4021,3715,3715,3715,3715,0,0,0,
0,0,0,4066,4065,4066,4065,4066,4065,4066,4065,4066,3745,3745,3949,3950,3949,3950,3949,3950,3949,3950,3949,0,0,3940,3939,3940,3939,3940,3939,3940,3939,3940,0,0,3873,3874,3873,3874,3873,3874,3873,3874,3873,0,0,4070,4069,4070,4069,4070,4069,4070,4069,4070,3699,3699,4047,4048,4047,4048,4047,4048,4047,4048,4047,0,0,0,
0,0,0,4050,4049,4050,4049,4050,4049,4050,4049,4050,3761,3761,3933,3934,3933,3934,3933,3934,3933,3934,3933,0,0,3924,3923,3924,3923,3924,3923,3924,3923,3924,0,0,3857,3858,3857,3858,3857,3858,3857,3858,3857,0,0,4054,4053,4054,4053,4054,4053,4054,4053,4054,3715,3715,4031,4032,4031,4032,4031,4032,4031,4032,4031,0,0,0,
0,0,0,4066,4065,4066,4065,4066,4065,4066,4065,4066,3949,3950,3949,3950,3949,3950,3949,3950,3949,3950,3949,0,0,3940,3939,3940,3939,3940,3939,3940,3939,3940,0,0,3873,3874,3873,3874,3873,3874,3873,3874,3873,0,0,4070,4069,4070,4069,4070,4069,4070,4069,4070,4047,4048,4047,4048,4047,4048,4047,4048,4047,4048,4047,0,0,0,
0,0,0,4050,4049,4050,4049,4050,4049,4050,4049,4050,3933,3934,3933,3934,3933,3934,3933,3934,3933,3934,3933,0,0,3924,3923,3924,3923,3924,3923,3924,3923,3924,0,0,3857,3858,3857,3858,3857,3858,3857,3858,3857,0,0,4054,4053,4054,4053,4054,4053,4054,4053,4054,4031,4032,4031,249,250,250,250,250,250,251,4031,0,0,0,
0,0,0,4066,4065,4066,4065,4066,4065,4066,4065,4066,0,0,3949,3950,3949,3950,3949,3950,3949,3950,3949,0,0,3940,3939,3940,3939,3940,3939,3940,3939,3940,0,0,3873,3874,3873,3874,3873,3874,3873,3874,3873,0,0,4070,4069,4070,4069,4070,4069,4070,4069,4070,0,0,4047,281,282,282,282,282,282,283,4047,0,0,0,
0,0,0,0,0,0,0,0,0,0,0,0,0,0,0,0,0,0,0,0,0,0,0,0,0,0,0,0,0,0,0,0,0,0,0,0,0,0,0,0,0,0,0,0,0,0,0,0,0,0,0,0,0,0,0,0,0,0,0,0,0,0,0,0,0,0,0,0,0,0,
0,0,0,0,0,0,0,0,0,0,0,0,0,0,0,0,0,0,0,0,0,0,0,0,0,0,0,0,0,0,0,0,0,0,0,0,0,0,0,0,0,0,0,0,0,0,0,0,0,0,0,0,0,0,0,0,0,0,0,0,0,0,0,0,0,0,0,0,0,0
</data>
 </layer>
 <layer id="2" name="Buildings" width="70" height="52">
  <data encoding="csv">
1,1,1,1,1,1,1,1,1,1,1,1,1,1,1,1,1,1,1,1,1,1,1,1,1,1,1,1,1,1,1,1,1,1,1,1,1,1,1,1,1,1,1,1,1,1,1,1,1,1,1,1,1,1,1,1,1,1,1,1,1,1,1,1,1,1,1,1,1,1,
1,1,0,0,0,0,0,0,0,0,0,1,1,0,0,0,0,0,0,0,0,0,1,1,0,0,0,0,0,0,0,0,0,1,1,0,0,0,0,0,0,0,0,0,1,1,0,0,0,0,0,0,0,0,0,1,1,0,0,0,0,0,0,0,0,0,1,1,1,1,
1,1,0,0,0,0,0,0,0,0,0,1,1,0,0,0,0,0,0,0,0,0,1,1,0,0,0,0,0,0,0,0,0,1,1,0,0,0,0,0,0,0,0,0,1,1,0,0,0,0,0,0,0,0,0,1,1,0,0,0,0,0,0,0,0,0,1,1,1,1,
1,1,107,107,3665,3665,3665,3665,3665,3665,3665,0,0,107,107,3572,3572,3572,3572,3572,3572,3572,1,1,107,107,3623,3623,3623,3623,3623,3623,3623,1,1,107,107,3717,3717,3717,3717,3717,3717,3717,1,1,107,107,3579,3579,3579,3579,3579,3579,3579,0,0,107,107,3762,3762,3762,3762,3762,3762,3762,1,1,1,1,
1,1,648,649,0,0,0,357,358,0,0,187,188,648,649,357,358,0,0,0,0,0,1,1,648,649,0,0,0,357,358,0,0,1,1,648,649,0,0,0,357,358,0,0,1,1,648,649,0,0,0,357,358,0,0,187,188,648,649,0,0,0,357,358,0,0,1,1,1,1,
1,1,0,0,0,0,0,0,0,0,0,219,220,0,0,0,0,0,0,0,0,0,1,1,0,0,0,0,0,0,0,0,0,1,1,0,0,0,0,0,0,0,0,0,1,1,0,0,0,0,0,0,0,0,0,219,220,0,0,0,0,0,0,0,0,0,1,1,1,1,
1,1,0,0,0,0,0,323,324,0,0,0,0,0,0,323,324,0,0,0,0,0,1,1,0,0,0,0,0,323,324,0,0,1,1,0,0,0,0,0,321,322,0,0,1,1,0,0,0,0,0,321,322,0,0,0,0,0,0,0,0,0,321,322,0,0,1,1,1,1,
1,1,0,0,0,0,0,0,0,0,0,0,0,0,0,0,0,0,0,0,0,0,1,1,0,0,0,0,0,0,0,0,0,1,1,0,0,0,0,0,0,0,0,0,1,1,0,0,0,0,0,0,0,0,0,0,0,0,0,0,0,0,0,0,0,0,1,1,1,1,
1,1,0,0,0,0,0,0,0,0,0,1,1,0,0,0,0,0,0,0,0,0,1,1,0,0,0,0,0,0,0,0,0,1,1,0,0,0,0,0,0,0,0,0,1,1,0,0,0,0,0,0,0,0,0,1,1,0,0,0,0,0,0,0,0,0,1,1,1,1,
1,1,1,1,1,0,0,1,1,1,1,1,1,1,1,1,1,1,0,0,1,1,1,1,1,1,1,0,0,1,1,1,1,1,1,1,1,1,0,0,1,1,1,1,1,1,1,1,1,0,0,1,1,1,1,1,1,1,1,1,0,0,1,1,1,1,1,1,1,1,
1,1,0,0,156,0,0,155,0,0,0,0,0,0,1,1,0,156,0,0,155,0,0,0,0,0,156,0,0,155,0,0,0,0,0,0,0,156,0,0,155,0,0,0,0,0,0,0,156,0,0,155,0,0,1,1,0,0,0,156,0,0,155,0,0,0,0,0,1,1,
1,1,0,0,188,0,0,187,0,0,0,0,0,0,1,1,0,188,0,0,187,0,0,0,0,0,188,0,0,187,0,0,0,0,0,0,0,188,0,0,187,0,0,0,0,0,0,0,188,0,0,187,0,0,1,1,0,0,0,188,0,0,187,0,0,2208,0,0,1,1,
1,1,3670,3670,220,0,0,219,3670,3670,3670,107,107,3670,1,1,3533,220,0,0,219,3533,3533,3533,3533,3533,220,0,0,219,3533,3533,3533,121,3533,3533,3533,220,0,0,219,3533,3533,3533,3533,3533,3533,3533,220,0,0,219,3533,3533,1,1,3533,3533,3533,220,0,0,2205,2205,3533,3533,3533,3533,1,1,
1,1,0,146,0,0,0,0,772,773,774,648,649,0,155,156,0,0,0,0,0,0,0,0,0,0,0,0,0,0,0,0,0,0,0,0,0,0,0,0,0,0,0,0,0,0,0,0,0,0,0,0,0,0,1,1,0,0,0,0,0,0,0,0,0,0,2272,0,1,1,
1,1,0,535,0,0,0,0,0,0,0,0,0,0,187,188,0,0,0,0,0,0,0,0,0,0,0,0,0,0,0,0,0,0,0,0,0,0,0,0,0,0,0,0,0,0,0,0,0,0,0,0,0,0,155,156,0,0,0,0,0,0,0,0,0,0,3380,0,1,1,
1,1,0,0,0,0,0,0,868,869,870,0,0,0,219,220,0,0,1,1,1,1,1,1,1,1,1,1,1,1,1,1,1,1,0,0,1,2421,1,1,1,1,1,1,1,1,1,1,1,1,1,1,0,0,187,188,0,0,966,0,0,0,0,0,0,0,0,0,1,1,
1,1,0,0,0,0,0,0,0,0,0,0,0,0,0,0,0,0,1,1,1,1,0,155,0,0,0,0,0,531,532,0,0,156,0,0,155,74,75,75,75,75,155,0,0,0,0,0,1,1,1,1,0,0,219,220,0,0,0,0,0,0,0,0,0,0,0,0,1,1,
1,1,0,0,0,0,0,0,0,0,0,0,0,0,0,0,0,0,1,1,1,1,0,187,81,81,570,81,81,563,564,0,570,571,0,0,187,106,107,107,107,107,187,81,81,570,81,81,1,1,1,1,0,0,0,0,0,0,0,0,0,0,0,0,0,0,0,0,1,1,
1,1,0,0,0,0,0,0,0,0,0,0,0,0,1,1,0,0,1,1,1,1,3714,599,600,601,602,603,489,599,600,601,602,603,0,0,219,138,635,633,634,1073,599,600,601,602,603,489,1,1,1,1,0,0,0,0,0,0,0,0,0,0,0,0,0,0,0,0,1,1,
1,1,0,0,0,0,0,0,0,0,0,0,0,0,1,1,0,0,1,1,1,1,146,631,632,633,634,635,521,631,632,633,634,635,0,0,0,402,0,0,0,1073,631,632,633,634,635,146,1,1,1,1,0,0,1,1,0,0,0,0,0,0,0,0,0,0,0,0,1,1,
1,1,0,0,0,0,0,0,0,0,0,0,0,0,1,1,0,0,1,1,1,1,535,0,0,0,0,0,0,0,0,0,0,0,0,0,0,0,0,0,0,0,0,0,0,0,0,535,1,1,1,1,0,0,1,1,0,0,0,0,0,0,0,0,0,0,0,0,1,1,
1,1,0,0,0,0,0,0,0,0,0,0,0,0,1,1,0,0,1,1,1,1,0,0,0,522,0,522,0,522,0,522,0,0,0,0,0,0,522,0,522,0,522,0,522,0,0,0,1,1,1,1,0,0,1,1,0,0,0,0,0,0,0,0,0,0,0,0,1,1,
1,1,1,1,1,1,0,0,1,1,1,1,1,1,1,1,0,0,1,1,1,1,0,0,505,506,506,506,506,506,506,506,507,0,0,0,0,505,506,506,506,506,506,506,506,507,0,0,1,1,1,1,0,0,1,1,0,0,3140,0,0,0,0,0,0,0,0,0,1,1,
0,0,0,0,0,156,0,0,155,0,0,0,0,0,0,156,0,0,155,0,0,156,0,715,537,538,538,538,538,538,538,538,539,779,0,0,715,537,538,538,538,538,538,538,538,539,779,0,155,0,0,156,0,0,1,1,0,0,0,0,0,0,0,0,0,0,0,0,1,1,
0,0,0,0,0,188,0,0,187,0,0,0,0,0,0,188,0,0,187,0,0,188,0,0,0,523,0,523,0,523,0,523,0,0,0,0,0,0,523,0,523,0,523,0,523,0,0,0,187,0,0,188,0,0,1,1,0,0,0,0,0,0,0,0,0,0,0,0,1,1,
3533,3533,3533,3533,3533,220,0,0,219,3533,3533,3533,3533,3533,3533,220,0,0,219,3714,3714,220,0,0,0,0,0,0,0,0,0,0,0,0,0,0,0,0,0,0,0,0,0,0,0,0,0,0,219,3714,3714,220,0,0,1,1,1,1,1,1,1,1,1,1,1,1,1,1,1,1,
0,0,0,0,0,0,0,0,0,0,0,0,0,0,0,0,0,0,0,0,0,0,0,0,0,0,0,0,0,0,0,0,0,0,0,0,0,0,0,0,0,0,0,0,0,0,0,0,0,0,0,0,0,0,1,1,0,0,0,0,0,0,0,0,0,0,0,0,1,1,
0,0,0,0,0,0,0,0,0,0,0,0,0,0,0,0,0,0,0,0,0,0,0,0,0,0,0,0,0,0,0,0,0,0,0,0,0,0,0,0,0,0,0,0,0,0,0,0,0,0,0,0,0,0,1,1,0,0,0,0,0,0,0,0,0,0,0,0,1,1,
1,1,1,1,1,1,0,0,1,1,1,1,1,1,1,1,0,0,1,1,1,1,0,0,0,0,0,0,0,0,0,0,0,0,0,0,0,0,0,0,0,0,0,0,0,0,0,0,1,1,1,1,0,0,1,1,3572,3572,3572,3572,3572,3572,3572,3572,3572,3572,3572,3572,1,1,
1,1,0,0,0,156,0,0,155,0,0,0,0,0,1,1,0,0,1,1,1,1,0,0,0,522,0,522,0,522,0,522,0,0,0,0,0,0,522,0,522,0,522,0,522,0,0,0,1,1,1,1,0,0,1,1,0,0,0,0,0,0,0,138,726,795,796,0,1,1,
1,1,0,0,0,188,0,0,187,0,0,0,0,0,1,1,0,0,1,1,1,1,0,0,505,506,506,506,506,506,506,506,507,0,0,0,0,505,506,506,506,506,506,506,506,507,0,0,1,1,1,1,0,0,155,156,0,1368,0,1368,0,0,0,2344,1368,0,0,0,1,1,
1,1,3810,3810,3810,220,0,0,219,3810,3810,3810,3810,3810,1,1,0,0,1,1,1,1,0,715,537,538,538,538,538,538,538,538,539,779,0,0,715,537,538,538,538,538,538,538,538,539,779,0,1,1,1,1,0,0,187,188,0,0,0,0,0,0,0,1360,1361,0,1368,0,1,1,
1,1,4374,4375,4376,0,0,0,0,4374,4375,4376,0,0,1,1,0,0,1,1,1,1,0,0,0,523,0,523,0,523,0,523,0,0,0,0,0,0,523,0,523,0,523,0,523,0,0,0,1,1,1,1,0,0,219,220,0,0,0,0,0,0,0,2148,0,0,726,0,1,1,
1,1,4386,4387,4388,0,0,0,0,4386,4387,4388,0,0,155,156,0,0,1,1,1,1,0,0,0,0,0,0,0,0,0,0,0,0,0,0,0,0,0,0,0,0,0,0,0,0,0,0,1,1,1,1,0,0,0,0,0,0,0,0,0,0,0,2148,1368,1360,1361,0,1,1,
1,1,4398,4399,4400,0,0,0,0,4398,4399,4400,0,0,187,188,0,0,1,1,1,1,1368,0,0,0,0,0,0,0,0,0,0,0,0,0,0,0,0,0,0,0,0,0,0,0,1368,0,1,1,1,1,0,0,0,0,0,0,0,0,0,0,0,0,0,0,0,0,1,1,
1,1,0,0,0,0,0,0,0,0,0,0,0,0,219,220,0,0,1,1,1,1,1,1,1,1,1,1,1,1,1,1,1,1,0,0,1,1,1,1,1,1,1,1,1,1,1,1,1,1,1,1,0,0,1,1,0,0,0,0,0,0,0,0,0,0,0,0,1,1,
1,1,0,0,0,0,0,0,0,0,0,0,0,0,0,0,0,0,155,0,0,0,0,0,0,0,0,0,0,0,0,0,0,156,0,0,155,0,0,0,0,0,0,0,0,0,0,0,0,0,0,156,0,0,1,1,0,0,0,0,0,0,0,0,0,0,0,0,1,1,
1,1,0,0,0,0,0,0,0,0,0,0,0,0,0,0,0,0,187,0,0,0,0,0,0,0,0,0,0,0,0,0,0,188,0,0,187,0,0,0,0,0,0,0,0,0,0,0,0,0,0,188,0,0,1,1,0,0,0,0,0,0,0,0,0,0,0,0,1,1,
1,1,0,0,0,0,0,0,0,0,0,0,0,0,1,1,0,0,219,3533,3533,3533,3533,3533,3533,3533,3533,3533,3533,3533,3533,3533,3533,220,0,0,219,3533,3533,3533,3533,3533,3533,3533,3533,3533,3533,3533,3533,3533,3533,220,0,0,1,1,0,0,0,0,0,0,0,0,0,0,146,0,1,1,
1,1,0,0,0,0,0,0,0,0,0,0,0,0,1,1,0,0,0,0,0,0,0,0,0,0,0,0,0,0,0,0,0,0,0,0,0,0,0,0,0,0,0,0,0,0,0,0,0,0,0,0,0,0,1,1,0,1490,1491,0,0,0,0,0,0,0,535,0,1,1,
1,1,0,0,0,0,0,0,0,0,0,0,0,0,1,1,0,0,0,0,0,0,0,0,0,0,0,0,0,0,0,0,0,0,0,0,0,0,0,0,0,0,0,0,0,0,0,0,0,0,0,0,0,0,1,1,0,0,0,0,0,0,0,0,0,0,0,0,1,1,
1,1,1,1,1,1,0,0,1,1,1,1,1,1,1,1,1,1,0,0,1,1,1,1,1,1,1,1,0,0,1,1,1,1,1,1,1,1,1,0,0,1,1,1,1,1,1,1,1,1,0,0,1,1,1,1,1,1,1,1,1,0,0,1,1,1,1,1,1,1,
1,1,1,0,0,156,0,0,155,0,0,0,1,1,0,0,0,156,0,0,155,0,0,1,1,0,0,156,0,0,155,0,0,0,1,1,0,0,156,0,0,155,0,0,0,1,1,0,0,156,0,0,155,0,0,0,1,1,0,0,156,0,0,155,0,0,0,1,1,1,
1,1,1,0,0,188,0,0,187,0,0,0,1,1,0,0,0,188,0,0,187,0,0,1,1,0,0,188,0,0,187,0,0,0,1,1,0,0,188,0,0,187,0,0,0,1,1,0,0,188,0,0,187,0,0,0,1,1,0,0,188,0,0,187,0,0,0,1,1,1,
1,1,1,3776,3776,610,611,0,219,610,611,3776,0,0,3761,3761,3761,220,0,0,219,3761,3761,1,1,3819,3819,220,0,0,219,3819,3819,3819,1,1,610,611,220,0,0,219,3530,3530,3530,1,1,3775,3775,220,0,0,219,3775,3775,3775,0,0,3715,3715,220,0,0,219,3715,3715,3715,1,1,1,
1,1,1,0,0,610,611,0,0,610,611,0,187,188,0,0,0,0,0,0,0,966,0,1,1,0,0,0,0,0,0,0,0,0,1,1,610,611,0,0,0,485,486,114,0,1,1,453,0,0,0,0,0,0,0,0,187,188,0,696,0,0,0,0,0,696,0,1,1,1,
1,1,1,0,0,642,643,0,0,642,643,0,219,220,0,0,0,0,0,0,0,0,0,1,1,1350,1351,0,0,0,0,1350,1351,0,1,1,642,643,0,0,0,517,518,146,0,1,1,380,381,0,0,0,0,2669,2670,0,219,220,0,728,0,0,0,0,0,728,0,1,1,1,
1,1,1,0,0,0,0,0,0,0,0,0,0,0,0,918,0,0,887,2225,2226,0,0,1,1,0,0,0,0,0,0,0,0,0,1,1,0,0,0,0,0,0,0,0,0,1,1,0,0,0,0,0,0,0,0,107,0,0,0,0,0,0,0,0,0,0,0,1,1,1,
1,1,1,776,777,0,0,0,0,0,0,0,0,0,0,950,952,952,952,2257,2258,0,0,1,1,0,0,0,0,0,0,0,0,0,1,1,0,0,0,0,0,0,0,0,0,1,1,0,0,0,0,0,0,0,0,442,0,0,0,0,0,0,0,0,0,0,0,1,1,1,
1,1,1,0,0,0,0,0,0,0,0,0,1,1,0,0,0,0,0,0,0,0,0,1,1,0,0,0,0,0,0,0,0,0,1,1,0,0,0,0,0,0,0,0,0,1,1,0,0,0,0,0,0,0,0,0,1,1,0,0,0,0,0,0,0,0,0,1,1,1,
1,1,1,1,1,1,1,1,1,1,1,1,1,1,1,1,1,1,1,1,1,1,1,1,1,1,1,1,1,1,1,1,1,1,1,1,1,1,1,1,1,1,1,1,1,1,1,1,1,1,1,1,1,1,1,1,1,1,1,1,1,1,1,1,1,1,1,1,1,1,
1,1,1,1,1,1,1,1,1,1,1,1,1,1,1,1,1,1,1,1,1,1,1,1,1,1,1,1,1,1,1,1,1,1,1,1,1,1,1,1,1,1,1,1,1,1,1,1,1,1,1,1,1,1,1,1,1,1,1,1,1,1,1,1,1,1,1,1,1,1
</data>
 </layer>
 <objectgroup id="3" name="Buildings">
  <object id="1" name="TileData" x="528" y="192" width="16" height="16">
   <properties>
    <property name="Action" value="Message MV.Gen3Door" />
   </properties>
  </object>
 </objectgroup>
 <layer id="4" name="Front" width="70" height="52">
  <data encoding="csv">
0,10,11,11,11,11,11,11,11,11,11,12,10,11,11,11,11,11,11,11,11,11,12,10,11,11,11,11,11,11,11,11,11,12,10,11,11,11,11,11,11,11,11,11,12,10,11,11,11,11,11,11,11,11,11,12,10,11,11,11,11,11,11,11,11,11,12,0,0,0,
0,65,0,0,0,0,0,0,0,0,0,69,65,0,0,0,0,0,0,0,0,0,69,65,0,0,0,0,0,0,0,0,0,69,65,0,0,0,0,0,0,0,0,0,69,65,0,0,0,0,0,0,0,0,0,69,65,0,0,0,0,0,0,0,0,0,69,0,0,0,
0,65,0,0,0,0,0,0,0,0,0,194,195,0,0,0,0,0,0,0,0,0,69,65,0,0,0,0,0,0,0,0,0,69,65,0,0,0,0,0,0,0,0,0,69,65,0,0,0,0,0,0,0,0,0,194,195,0,0,0,0,0,0,0,0,0,69,0,0,0,
0,65,616,617,0,0,0,325,326,0,0,0,0,616,617,325,326,0,0,0,0,0,69,65,616,617,0,0,0,325,326,0,0,69,65,616,617,0,0,0,325,326,0,0,69,65,616,617,0,0,0,325,326,0,0,0,0,616,617,0,0,0,325,326,0,0,69,0,0,0,
0,65,0,0,0,0,0,359,360,0,0,0,0,0,0,353,354,0,0,0,0,0,69,65,0,0,0,0,0,355,356,0,0,69,65,0,0,0,0,0,359,360,0,0,69,65,0,0,0,0,0,353,354,0,0,0,0,0,0,0,0,0,355,356,0,0,69,0,0,0,
0,65,0,0,0,0,0,391,392,0,0,0,0,0,0,385,386,0,0,0,0,0,69,65,0,0,0,0,0,387,388,0,0,69,65,0,0,0,0,0,391,392,0,0,69,65,0,0,0,0,0,385,386,0,0,0,0,0,0,0,0,0,387,388,0,0,69,0,0,0,
0,65,0,0,0,0,0,0,0,0,0,0,0,0,0,0,0,0,0,0,0,0,69,65,0,0,0,0,0,0,0,0,0,69,65,0,0,0,0,0,0,0,0,0,69,65,0,0,0,0,0,0,0,0,0,0,0,0,0,0,0,0,0,0,0,0,69,0,0,0,
0,65,0,0,0,0,0,0,0,0,0,164,163,0,0,0,0,0,0,0,0,0,69,65,0,0,0,0,0,0,0,0,0,69,65,0,0,0,0,0,0,0,0,0,69,65,0,0,0,0,0,0,0,0,0,164,163,0,0,0,0,0,0,0,0,0,69,0,0,0,
0,161,162,166,163,0,0,164,166,166,167,168,161,162,166,166,166,163,0,0,164,167,168,161,162,166,163,0,0,164,166,166,167,168,161,162,166,163,0,0,164,166,166,167,168,161,162,166,163,0,0,164,166,166,167,168,161,162,166,163,0,0,164,166,166,167,168,0,0,0,
0,10,11,11,195,0,0,194,11,11,11,11,11,11,12,10,11,195,0,0,194,11,11,11,11,11,195,0,0,194,11,11,11,11,11,11,11,195,0,0,194,11,11,11,11,11,11,11,195,0,0,194,11,11,12,10,11,11,11,195,0,0,194,11,11,11,11,11,12,0,
0,65,0,0,0,0,0,0,0,0,0,0,0,0,69,65,0,0,0,0,0,0,0,0,0,0,0,0,0,0,0,0,0,57,0,0,0,0,0,0,0,0,0,0,0,0,0,0,0,0,0,0,0,0,69,65,0,0,0,0,0,0,0,0,0,0,0,0,69,0,
0,65,0,0,0,0,0,0,0,0,0,0,0,0,69,65,0,0,0,0,0,0,0,0,0,0,0,0,0,0,0,0,0,89,0,0,0,0,0,0,0,0,0,0,0,0,0,0,0,0,0,0,0,0,69,65,0,3386,1330,0,0,0,1330,1331,3386,0,0,0,69,0,
0,65,0,0,0,0,0,0,740,741,742,616,617,0,194,195,0,0,0,0,0,0,0,0,0,0,0,0,0,0,0,0,0,0,0,0,0,0,0,0,0,0,0,0,0,0,0,0,0,0,0,0,0,0,69,65,0,0,0,0,0,0,1362,1363,0,0,0,0,69,0,
0,65,0,503,0,0,0,0,804,805,806,0,0,0,0,0,0,0,0,0,0,0,0,0,0,0,0,0,0,0,0,0,0,0,0,0,0,0,0,0,0,0,0,0,0,0,0,0,0,0,0,0,0,0,194,195,0,0,0,0,0,0,0,0,0,0,3348,0,69,0,
0,65,0,0,0,0,0,0,836,837,838,0,0,0,0,0,0,0,164,166,166,166,166,166,166,166,166,166,166,166,166,166,166,163,0,0,164,166,166,166,166,166,166,166,166,166,166,166,166,166,166,163,0,0,0,0,0,0,934,0,0,0,0,0,0,0,0,0,69,0,
0,65,0,0,0,0,0,0,0,0,0,0,0,0,0,0,0,0,69,0,0,10,11,11,11,11,11,11,11,11,11,11,11,195,0,0,194,11,11,257,11,1345,11,11,11,11,11,11,12,0,0,65,0,0,0,0,0,0,0,0,0,0,0,0,0,0,0,0,69,0,
0,65,0,0,0,0,0,0,0,0,0,0,0,0,0,0,0,0,69,0,0,65,0,531,532,257,567,568,257,0,0,226,0,0,0,0,0,2453,571,289,570,0,531,532,257,567,568,257,69,0,0,65,0,0,0,0,0,0,0,0,0,0,0,0,0,0,0,0,69,0,
0,65,0,0,0,0,0,0,0,0,0,0,0,0,164,163,0,0,69,0,0,65,0,563,564,289,0,571,289,0,0,258,0,0,0,0,0,0,603,601,602,1041,563,564,289,0,571,289,69,0,0,65,0,0,0,0,0,0,0,0,0,0,0,0,0,0,0,0,69,0,
0,65,0,0,0,0,0,0,0,0,0,0,0,0,69,65,0,0,69,0,0,65,0,0,0,0,0,0,514,400,600,601,0,0,0,0,0,370,0,0,0,400,0,0,0,0,0,514,69,0,0,65,0,0,164,163,0,0,0,0,0,0,0,0,0,0,0,0,69,0,
0,65,0,0,0,0,0,0,0,0,0,0,0,0,69,65,0,0,69,0,0,65,503,0,0,0,0,0,0,0,0,0,0,0,0,0,0,0,0,0,0,1031,0,0,0,0,0,503,69,0,0,65,0,0,69,65,0,0,0,0,0,0,0,0,0,0,0,0,69,0,
0,65,0,0,0,0,0,0,0,0,0,0,0,0,69,65,0,0,69,0,0,65,0,0,0,490,0,490,0,490,0,490,0,0,0,0,0,0,490,0,490,0,490,0,490,0,0,0,69,0,0,65,0,0,69,65,0,0,0,0,0,0,0,0,0,0,0,0,69,0,
0,161,162,166,166,163,0,0,164,166,166,166,166,167,168,65,0,0,69,0,0,65,0,0,473,474,474,474,474,474,474,474,475,0,0,0,0,473,474,474,474,474,474,474,474,475,0,0,69,0,0,65,0,0,69,65,0,0,0,0,0,0,0,0,0,0,0,0,69,0,
11,11,11,11,11,195,0,0,194,11,11,11,11,11,11,195,0,0,194,11,11,195,0,683,366,367,367,367,367,367,367,367,333,747,0,0,683,366,367,367,367,367,367,367,367,333,747,0,194,11,11,195,0,0,69,65,0,3386,0,0,0,0,0,0,0,0,0,0,69,0,
0,0,0,0,0,0,0,0,0,0,0,0,0,0,0,0,0,0,0,0,0,0,0,0,0,491,0,491,0,491,0,491,0,0,0,0,0,0,491,0,491,0,491,0,491,0,0,0,0,0,0,0,0,0,69,65,0,0,0,0,0,0,0,0,0,0,0,0,69,0,
0,0,0,0,0,0,0,0,0,0,0,0,0,0,0,0,0,0,0,0,0,0,0,0,0,0,0,0,0,0,0,0,0,0,0,0,0,0,0,0,0,0,0,0,0,0,0,0,0,0,0,0,0,0,69,161,162,166,166,166,166,166,166,166,166,166,166,167,168,0,
0,0,0,0,0,0,0,0,0,0,0,0,0,0,0,0,0,0,0,0,0,0,0,0,0,0,0,0,0,0,0,0,0,0,0,0,0,0,0,0,0,0,0,0,0,0,0,0,0,0,0,0,0,0,69,10,11,11,11,11,11,11,11,11,11,11,11,11,12,0,
0,0,0,0,0,0,0,0,0,0,0,0,0,0,0,0,0,0,0,0,0,0,0,0,0,0,0,0,0,0,0,0,0,0,0,0,0,0,0,0,0,0,0,0,0,0,0,0,0,0,0,0,0,0,69,65,0,0,0,0,0,0,0,0,0,0,0,0,69,0,
166,166,166,166,166,163,0,0,164,166,166,166,166,166,166,163,0,0,164,166,166,163,0,0,0,0,0,0,0,0,0,0,0,0,0,0,0,0,0,0,0,0,0,0,0,0,0,0,164,166,166,163,0,0,69,65,0,0,0,0,0,0,0,0,0,0,0,0,69,0,
0,10,11,11,11,195,0,0,194,11,11,11,11,11,12,65,0,0,69,0,0,65,0,0,0,490,0,490,0,490,0,490,0,0,0,0,0,0,490,0,490,0,490,0,490,0,0,0,69,0,0,65,0,0,69,65,0,0,0,0,0,0,0,0,0,0,0,0,69,0,
0,65,0,0,0,0,0,0,0,0,0,0,0,0,69,65,0,0,69,0,0,65,0,0,473,474,474,474,474,474,474,474,475,0,0,0,0,473,474,474,474,474,474,474,474,475,0,0,69,0,0,65,0,0,194,195,0,1336,0,1336,0,0,0,2312,1336,0,0,0,69,0,
0,65,0,0,0,0,0,0,0,0,0,0,0,0,69,65,0,0,69,0,0,65,0,683,366,367,367,367,367,367,367,367,333,747,0,0,683,366,367,367,367,367,367,367,367,333,747,0,69,0,0,65,0,0,0,0,0,1328,1329,1328,1329,0,0,1328,1329,0,1336,0,69,0,
0,65,4362,4363,4364,0,0,0,0,4362,4363,4364,0,0,69,65,0,0,69,0,0,65,0,0,0,491,0,491,0,491,0,491,0,0,0,0,0,0,491,0,491,0,491,0,491,0,0,0,69,0,0,65,0,0,0,0,0,0,0,0,0,0,0,2116,0,0,694,0,69,0,
0,65,0,0,0,0,0,0,0,0,0,0,0,0,194,195,0,0,69,0,0,65,0,0,0,0,0,0,0,0,0,0,0,0,0,0,0,0,0,0,0,0,0,0,0,0,0,0,69,0,0,65,0,0,0,0,0,0,0,0,0,0,0,2116,1336,1328,1329,0,69,0,
0,65,0,0,0,0,0,0,0,0,0,0,0,0,0,0,0,0,69,0,0,65,1336,0,0,0,0,0,0,0,0,0,0,0,0,0,0,0,0,0,0,0,0,0,0,0,1336,0,69,0,0,65,0,0,0,0,0,0,0,0,0,0,0,0,0,0,0,0,69,0,
0,65,0,0,0,0,0,0,0,0,0,0,0,0,0,0,0,0,69,0,0,161,1328,1329,166,166,166,166,166,166,166,166,166,163,0,0,164,166,166,166,166,166,166,166,166,166,1328,1329,168,0,0,65,0,0,164,163,0,0,0,0,0,0,0,0,0,0,0,0,69,0,
0,65,0,0,0,0,0,0,0,0,0,0,0,0,0,0,0,0,194,11,11,11,11,11,11,11,11,11,11,11,11,11,11,195,0,0,194,11,11,11,11,11,11,11,11,11,11,11,11,11,11,195,0,0,69,65,0,0,0,0,0,0,0,0,0,0,0,0,69,0,
0,65,0,0,0,0,0,0,0,0,0,0,0,0,0,0,0,0,0,0,0,0,0,0,0,0,0,0,0,0,0,0,0,0,0,0,0,0,0,0,0,0,0,0,0,0,0,0,0,0,0,0,0,0,69,65,0,0,0,0,0,0,0,0,0,0,0,0,69,0,
0,65,0,0,0,0,0,0,0,0,0,0,0,0,164,163,0,0,0,0,0,0,0,0,0,0,0,0,0,0,0,0,0,0,0,0,0,0,0,0,0,0,0,0,0,0,0,0,0,0,0,0,0,0,69,65,0,0,0,0,0,0,0,0,0,0,0,0,69,0,
0,65,0,0,0,0,0,0,0,0,0,0,0,0,69,65,0,0,0,0,0,0,0,0,0,0,0,0,0,0,0,0,0,0,0,0,0,0,0,0,0,0,0,0,0,0,0,0,0,0,0,0,0,0,69,65,0,1458,1459,0,0,0,0,0,0,0,503,0,69,0,
0,65,0,0,0,0,0,0,0,0,0,0,0,0,69,65,0,0,0,0,0,0,0,0,0,0,0,0,0,0,0,0,0,0,0,0,0,0,0,0,0,0,0,0,0,0,0,0,0,0,0,0,0,0,69,65,0,0,0,0,0,0,0,0,0,0,0,0,69,0,
0,161,162,166,166,163,0,0,164,166,166,166,166,167,168,161,162,163,0,0,164,166,166,166,166,166,166,163,0,0,164,166,166,166,166,166,166,166,163,0,0,164,166,166,166,166,166,166,166,163,0,0,164,167,168,161,162,166,166,166,163,0,0,164,166,166,166,167,168,0,
0,0,10,11,11,195,0,0,194,11,11,11,12,10,11,11,11,195,0,0,194,11,11,12,10,11,11,195,0,0,194,11,11,11,12,10,11,11,195,0,0,194,11,11,11,12,10,11,11,195,0,0,194,11,11,11,12,10,11,11,195,0,0,194,11,11,11,12,0,0,
0,0,65,0,0,0,0,0,0,0,0,0,69,65,0,0,0,0,0,0,0,0,0,69,65,0,0,0,0,0,0,0,0,0,69,65,0,0,0,0,0,0,0,0,0,69,65,0,0,0,0,0,0,0,0,0,69,65,0,0,0,0,0,0,0,0,0,69,0,0,
0,0,65,0,0,578,579,0,0,578,579,0,194,195,0,0,0,0,0,0,0,0,0,69,65,0,0,0,0,0,0,0,0,0,69,65,578,579,0,0,0,0,0,0,0,69,65,0,0,0,0,0,0,0,0,0,194,195,0,0,0,0,0,0,0,0,0,69,0,0,
0,0,65,0,0,0,0,0,0,0,0,0,0,0,0,0,0,0,0,0,0,934,0,69,65,0,0,0,0,0,0,0,0,0,69,65,0,0,0,0,0,0,0,0,0,69,65,0,0,0,0,0,0,0,0,0,0,0,0,664,0,0,0,0,0,664,0,69,0,0,
0,0,65,0,0,0,0,0,0,0,0,0,0,0,0,0,0,0,0,0,0,0,0,69,65,1318,1319,0,0,0,0,1318,1319,0,69,65,0,0,0,0,0,485,577,0,0,69,65,348,349,0,0,0,0,2637,2638,0,0,0,0,0,0,0,0,0,0,0,0,69,0,0,
0,0,65,0,0,0,0,0,0,0,0,0,0,0,0,0,0,0,0,0,0,0,0,69,65,0,0,0,0,0,0,0,0,0,69,65,0,0,0,0,0,0,0,503,0,69,65,0,0,0,0,0,0,0,0,0,0,0,0,0,0,0,0,0,0,0,0,69,0,0,
0,0,65,680,778,0,0,0,0,0,0,0,0,0,0,481,919,920,919,0,0,0,0,69,65,0,0,0,0,0,0,0,0,0,69,65,0,0,0,0,0,0,0,0,0,69,65,0,0,0,0,0,0,0,0,410,0,0,0,0,0,0,0,0,0,0,0,69,0,0,
0,0,65,0,0,0,0,0,0,0,0,0,164,163,0,0,0,0,0,0,0,0,0,69,65,0,0,0,0,0,0,0,0,0,69,65,0,0,0,0,0,0,0,0,0,69,65,0,0,0,0,0,0,0,0,0,164,163,0,0,0,0,0,0,0,0,0,69,0,0,
0,0,161,162,166,166,166,166,166,166,166,167,168,161,162,166,166,166,166,166,166,166,167,168,161,162,166,166,166,166,166,166,166,167,168,161,162,166,166,166,166,166,166,166,167,168,161,162,166,166,166,166,166,166,166,167,168,161,162,166,166,166,166,166,166,166,167,168,0,0,
0,0,0,0,0,0,0,0,0,0,0,0,0,0,0,0,0,0,0,0,0,0,0,0,0,0,0,0,0,0,0,0,0,0,0,0,0,0,0,0,0,0,0,0,0,0,0,0,0,0,0,0,0,0,0,0,0,0,0,0,0,0,0,0,0,0,0,0,0,0,
0,0,0,0,0,0,0,0,0,0,0,0,0,0,0,0,0,0,0,0,0,0,0,0,0,0,0,0,0,0,0,0,0,0,0,0,0,0,0,0,0,0,0,0,0,0,0,0,0,0,0,0,0,0,0,0,0,0,0,0,0,0,0,0,0,0,0,0,0,0
</data>
 </layer>
 <layer id="5" name="AlwaysFront" width="70" height="52">
  <data encoding="csv">
0,0,0,0,0,0,0,0,0,0,0,0,0,0,0,0,0,0,0,0,0,0,0,0,0,0,0,0,0,0,0,0,0,0,0,0,0,0,0,0,0,0,0,0,0,0,0,0,0,0,0,0,0,0,0,0,0,0,0,0,0,0,0,0,0,0,0,0,0,0,
0,0,0,0,0,0,0,0,0,0,0,0,0,0,0,0,0,0,0,0,0,0,0,0,0,0,0,0,0,0,0,0,0,0,0,0,0,0,0,0,0,0,0,0,0,0,0,0,0,0,0,0,0,0,0,0,0,0,0,0,0,0,0,0,0,0,0,0,0,0,
0,0,0,0,0,0,0,0,0,0,0,0,0,0,0,0,0,0,0,0,0,0,0,0,0,0,0,0,0,0,0,0,0,0,0,0,0,0,0,0,0,0,0,0,0,0,0,0,0,0,0,0,0,0,0,0,0,0,0,0,0,0,0,0,0,0,0,0,0,0,
0,0,0,0,0,0,0,0,0,0,0,0,0,0,0,0,0,0,0,0,0,0,0,0,0,0,0,0,0,0,0,0,0,0,0,0,0,0,0,0,0,0,0,0,0,0,0,0,0,0,0,0,0,0,0,0,0,0,0,0,0,0,0,0,0,0,0,0,0,0,
0,0,0,0,0,0,0,0,0,0,0,0,0,0,0,0,0,0,0,0,0,0,0,0,0,0,0,0,0,0,0,0,0,0,0,0,0,0,0,0,0,0,0,0,0,0,0,0,0,0,0,0,0,0,0,0,0,0,0,0,0,0,0,0,0,0,0,0,0,0,
0,0,0,0,0,0,0,0,0,0,0,0,0,0,0,0,0,0,0,0,0,0,0,0,0,0,0,0,0,0,0,0,0,0,0,0,0,0,0,0,0,0,0,0,0,0,0,0,0,0,0,0,0,0,0,0,0,0,0,0,0,0,0,0,0,0,0,0,0,0,
0,0,0,0,0,0,0,0,0,0,0,0,0,0,0,0,0,0,0,0,0,0,0,0,0,0,0,0,0,0,0,0,0,0,0,0,0,0,0,0,0,0,0,0,0,0,0,0,0,0,0,0,0,0,0,0,0,0,0,0,0,0,0,0,0,0,0,0,0,0,
0,0,0,0,0,0,0,0,0,0,0,0,0,0,0,0,0,0,0,0,0,0,0,0,0,0,0,0,0,0,0,0,0,0,0,0,0,0,0,0,0,0,0,0,0,0,0,0,0,0,0,0,0,0,0,0,0,0,0,0,0,0,0,0,0,0,0,0,0,0,
0,0,0,0,0,0,0,0,0,0,0,0,0,0,0,0,0,0,0,0,0,0,0,0,0,0,0,0,0,0,0,0,0,0,0,0,0,0,0,0,0,0,0,0,0,0,0,0,0,0,0,0,0,0,0,0,0,0,0,0,0,0,0,0,0,0,0,0,0,0,
0,0,0,0,0,0,0,0,0,0,0,0,0,0,0,0,0,0,0,0,0,0,0,0,0,0,0,0,0,0,0,0,0,0,0,0,0,0,0,0,0,0,0,0,0,0,0,0,0,0,0,0,0,0,0,0,0,0,0,0,0,0,0,0,0,0,0,0,0,0,
0,0,0,0,0,0,0,0,0,0,0,0,0,0,0,0,0,0,0,0,0,0,0,0,0,0,0,0,0,0,0,0,0,0,0,0,0,0,0,0,0,0,0,0,0,0,0,0,0,0,0,0,0,0,0,0,0,0,0,0,0,0,0,0,0,0,0,0,0,0,
0,0,0,0,0,0,0,0,0,0,0,0,0,0,0,0,0,0,0,0,0,0,0,0,0,0,0,0,0,0,0,0,0,0,0,0,0,0,0,0,0,0,0,0,0,0,0,0,0,0,0,0,0,0,0,0,0,0,0,0,0,0,0,0,0,0,0,0,0,0,
0,0,0,0,0,0,0,0,0,0,0,0,0,0,0,0,0,0,0,0,0,0,0,0,0,0,0,0,0,0,0,0,0,0,0,0,0,0,0,0,0,0,0,0,0,0,0,0,0,0,0,0,0,0,0,0,0,0,0,0,0,0,0,0,0,0,0,0,0,0,
0,0,0,0,0,0,0,0,0,0,0,0,0,0,0,0,0,0,0,0,0,0,0,0,0,0,0,0,0,0,0,0,0,0,0,0,0,0,0,0,0,0,0,0,0,0,0,0,0,0,0,0,0,0,0,0,0,0,0,0,0,0,0,0,0,0,0,0,0,0,
0,0,0,0,0,0,0,0,0,0,0,0,0,0,0,0,0,0,0,0,0,0,0,0,0,0,0,0,0,0,0,0,0,0,0,0,0,0,0,0,0,0,0,0,0,0,0,0,0,0,0,0,0,0,0,0,0,0,0,0,0,0,0,0,0,0,0,0,0,0,
0,0,0,0,0,0,0,0,0,0,0,0,0,0,0,0,0,0,0,0,0,0,0,0,0,0,0,0,0,0,0,0,0,0,0,0,0,0,0,0,0,0,0,0,0,0,0,0,0,0,0,0,0,0,0,0,0,0,0,0,0,0,0,0,0,0,0,0,0,0,
0,0,0,0,0,0,0,0,0,0,0,0,0,0,0,0,0,0,0,0,0,0,0,0,0,0,0,0,0,0,0,0,0,0,0,0,0,0,0,0,0,0,0,0,0,0,0,0,0,0,0,0,0,0,0,0,0,0,0,0,0,0,0,0,0,0,0,0,0,0,
0,0,0,0,0,0,0,0,0,0,0,0,0,0,0,0,0,0,0,0,0,0,0,0,0,0,0,0,0,0,0,0,0,0,0,0,0,0,0,0,0,0,0,0,0,0,0,0,0,0,0,0,0,0,0,0,0,0,0,0,0,0,0,0,0,0,0,0,0,0,
0,0,0,0,0,0,0,0,0,0,0,0,0,0,0,0,0,0,0,0,0,0,0,0,0,0,0,0,0,0,0,0,0,0,0,0,0,0,0,0,0,0,0,0,0,0,0,0,0,0,0,0,0,0,0,0,0,0,0,0,0,0,0,0,0,0,0,0,0,0,
0,0,0,0,0,0,0,0,0,0,0,0,0,0,0,0,0,0,0,0,0,0,0,0,0,0,0,0,0,0,0,0,0,0,0,0,0,0,0,0,0,0,0,0,0,0,0,0,0,0,0,0,0,0,0,0,0,0,0,0,0,0,0,0,0,0,0,0,0,0,
0,0,0,0,0,0,0,0,0,0,0,0,0,0,0,0,0,0,0,0,0,0,0,0,0,0,0,0,0,0,0,0,0,0,0,0,0,0,0,0,0,0,0,0,0,0,0,0,0,0,0,0,0,0,0,0,0,0,0,0,0,0,0,0,0,0,0,0,0,0,
0,0,0,0,0,0,0,0,0,0,0,0,0,0,0,0,0,0,0,0,0,0,0,0,0,0,0,0,0,0,0,0,0,0,0,0,0,0,0,0,0,0,0,0,0,0,0,0,0,0,0,0,0,0,0,0,0,0,0,0,0,0,0,0,0,0,0,0,0,0,
0,0,0,0,0,0,0,0,0,0,0,0,0,0,0,0,0,0,0,0,0,0,0,0,0,0,0,0,0,0,0,0,0,0,0,0,0,0,0,0,0,0,0,0,0,0,0,0,0,0,0,0,0,0,0,0,0,0,0,0,0,0,0,0,0,0,0,0,0,0,
0,0,0,0,0,0,0,0,0,0,0,0,0,0,0,0,0,0,0,0,0,0,0,0,0,0,0,0,0,0,0,0,0,0,0,0,0,0,0,0,0,0,0,0,0,0,0,0,0,0,0,0,0,0,0,0,0,0,0,0,0,0,0,0,0,0,0,0,0,0,
0,0,0,0,0,0,0,0,0,0,0,0,0,0,0,0,0,0,0,0,0,0,0,0,0,0,0,0,0,0,0,0,0,0,0,0,0,0,0,0,0,0,0,0,0,0,0,0,0,0,0,0,0,0,0,0,0,0,0,0,0,0,0,0,0,0,0,0,0,0,
0,0,0,0,0,0,0,0,0,0,0,0,0,0,0,0,0,0,0,0,0,0,0,0,0,0,0,0,0,0,0,0,0,0,0,0,0,0,0,0,0,0,0,0,0,0,0,0,0,0,0,0,0,0,0,0,0,0,0,0,0,0,0,0,0,0,0,0,0,0,
0,0,0,0,0,0,0,0,0,0,0,0,0,0,0,0,0,0,0,0,0,0,0,0,0,0,0,0,0,0,0,0,0,0,0,0,0,0,0,0,0,0,0,0,0,0,0,0,0,0,0,0,0,0,0,0,0,0,0,0,0,0,0,0,0,0,0,0,0,0,
0,0,0,0,0,0,0,0,0,0,0,0,0,0,0,0,0,0,0,0,0,0,0,0,0,0,0,0,0,0,0,0,0,0,0,0,0,0,0,0,0,0,0,0,0,0,0,0,0,0,0,0,0,0,0,0,0,0,0,0,0,0,0,0,0,0,0,0,0,0,
0,0,0,0,0,0,0,0,0,0,0,0,0,0,0,0,0,0,0,0,0,0,0,0,0,0,0,0,0,0,0,0,0,0,0,0,0,0,0,0,0,0,0,0,0,0,0,0,0,0,0,0,0,0,0,0,0,0,0,0,0,0,0,0,0,0,0,0,0,0,
0,0,0,0,0,0,0,0,0,0,0,0,0,0,0,0,0,0,0,0,0,0,0,0,0,0,0,0,0,0,0,0,0,0,0,0,0,0,0,0,0,0,0,0,0,0,0,0,0,0,0,0,0,0,0,0,0,0,0,0,0,0,0,0,0,0,0,0,0,0,
0,0,0,0,0,0,0,0,0,0,0,0,0,0,0,0,0,0,0,0,0,0,0,0,0,0,0,0,0,0,0,0,0,0,0,0,0,0,0,0,0,0,0,0,0,0,0,0,0,0,0,0,0,0,0,0,0,0,0,0,0,0,0,0,0,0,0,0,0,0,
0,0,0,0,0,0,0,0,0,0,0,0,0,0,0,0,0,0,0,0,0,0,0,0,0,0,0,0,0,0,0,0,0,0,0,0,0,0,0,0,0,0,0,0,0,0,0,0,0,0,0,0,0,0,0,0,0,0,0,0,0,0,0,0,0,0,0,0,0,0,
0,0,0,0,0,0,0,0,0,0,0,0,0,0,0,0,0,0,0,0,0,0,0,0,0,0,0,0,0,0,0,0,0,0,0,0,0,0,0,0,0,0,0,0,0,0,0,0,0,0,0,0,0,0,0,0,0,0,0,0,0,0,0,0,0,0,0,0,0,0,
0,0,0,0,0,0,0,0,0,0,0,0,0,0,0,0,0,0,0,0,0,0,0,0,0,0,0,0,0,0,0,0,0,0,0,0,0,0,0,0,0,0,0,0,0,0,0,0,0,0,0,0,0,0,0,0,0,0,0,0,0,0,0,0,0,0,0,0,0,0,
0,0,0,0,0,0,0,0,0,0,0,0,0,0,0,0,0,0,0,0,0,0,0,0,0,0,0,0,0,0,0,0,0,0,0,0,0,0,0,0,0,0,0,0,0,0,0,0,0,0,0,0,0,0,0,0,0,0,0,0,0,0,0,0,0,0,0,0,0,0,
0,0,0,0,0,0,0,0,0,0,0,0,0,0,0,0,0,0,0,0,0,0,0,0,0,0,0,0,0,0,0,0,0,0,0,0,0,0,0,0,0,0,0,0,0,0,0,0,0,0,0,0,0,0,0,0,0,0,0,0,0,0,0,0,0,0,0,0,0,0,
0,0,0,0,0,0,0,0,0,0,0,0,0,0,0,0,0,0,0,0,0,0,0,0,0,0,0,0,0,0,0,0,0,0,0,0,0,0,0,0,0,0,0,0,0,0,0,0,0,0,0,0,0,0,0,0,0,0,0,0,0,0,0,0,0,0,0,0,0,0,
0,0,0,0,0,0,0,0,0,0,0,0,0,0,0,0,0,0,0,0,0,0,0,0,0,0,0,0,0,0,0,0,0,0,0,0,0,0,0,0,0,0,0,0,0,0,0,0,0,0,0,0,0,0,0,0,0,0,0,0,0,0,0,0,0,0,0,0,0,0,
0,0,0,0,0,0,0,0,0,0,0,0,0,0,0,0,0,0,0,0,0,0,0,0,0,0,0,0,0,0,0,0,0,0,0,0,0,0,0,0,0,0,0,0,0,0,0,0,0,0,0,0,0,0,0,0,0,0,0,0,0,0,0,0,0,0,0,0,0,0,
0,0,0,0,0,0,0,0,0,0,0,0,0,0,0,0,0,0,0,0,0,0,0,0,0,0,0,0,0,0,0,0,0,0,0,0,0,0,0,0,0,0,0,0,0,0,0,0,0,0,0,0,0,0,0,0,0,0,0,0,0,0,0,0,0,0,0,0,0,0,
0,0,0,0,0,0,0,0,0,0,0,0,0,0,0,0,0,0,0,0,0,0,0,0,0,0,0,0,0,0,0,0,0,0,0,0,0,0,0,0,0,0,0,0,0,0,0,0,0,0,0,0,0,0,0,0,0,0,0,0,0,0,0,0,0,0,0,0,0,0,
0,0,0,0,0,0,0,0,0,0,0,0,0,0,0,0,0,0,0,0,0,0,0,0,0,0,0,0,0,0,0,0,0,0,0,0,0,0,0,0,0,0,0,0,0,0,0,0,0,0,0,0,0,0,0,0,0,0,0,0,0,0,0,0,0,0,0,0,0,0,
0,0,0,0,0,0,0,0,0,0,0,0,0,0,0,0,0,0,0,0,0,0,0,0,0,0,0,0,0,0,0,0,0,0,0,0,0,0,0,0,0,0,0,0,0,0,0,0,0,0,0,0,0,0,0,0,0,0,0,0,0,0,0,0,0,0,0,0,0,0,
0,0,0,0,0,0,0,0,0,0,0,0,0,0,0,0,0,0,0,0,0,0,0,0,0,0,0,0,0,0,0,0,0,0,0,0,0,0,0,0,0,0,0,0,0,0,0,0,0,0,0,0,0,0,0,0,0,0,0,0,0,0,0,0,0,0,0,0,0,0,
0,0,0,0,0,0,0,0,0,0,0,0,0,0,0,0,0,0,0,0,0,0,0,0,0,0,0,0,0,0,0,0,0,0,0,0,0,0,0,0,0,0,0,0,0,0,0,0,0,0,0,0,0,0,0,0,0,0,0,0,0,0,0,0,0,0,0,0,0,0,
0,0,0,0,0,0,0,0,0,0,0,0,0,0,0,0,0,0,0,0,0,0,0,0,0,0,0,0,0,0,0,0,0,0,0,0,0,0,0,0,0,0,0,0,0,0,0,0,0,0,0,0,0,0,0,0,0,0,0,0,0,0,0,0,0,0,0,0,0,0,
0,0,0,0,0,0,0,0,0,0,0,0,0,0,0,0,0,0,0,0,0,0,0,0,0,0,0,0,0,0,0,0,0,0,0,0,0,0,0,0,0,0,0,0,0,0,0,0,0,0,0,0,0,0,0,0,0,0,0,0,0,0,0,0,0,0,0,0,0,0,
0,0,0,0,0,0,0,0,0,0,0,0,0,0,0,0,0,0,0,0,0,0,0,0,0,0,0,0,0,0,0,0,0,0,0,0,0,0,0,0,0,0,0,0,0,0,0,0,0,0,0,0,0,0,0,0,0,0,0,0,0,0,0,0,0,0,0,0,0,0,
0,0,0,0,0,0,0,0,0,0,0,0,0,0,0,0,0,0,0,0,0,0,0,0,0,0,0,0,0,0,0,0,0,0,0,0,0,0,0,0,0,0,0,0,0,0,0,0,0,0,0,0,0,0,0,0,0,0,0,0,0,0,0,0,0,0,0,0,0,0,
0,0,0,0,0,0,0,0,0,0,0,0,0,0,0,0,0,0,0,0,0,0,0,0,0,0,0,0,0,0,0,0,0,0,0,0,0,0,0,0,0,0,0,0,0,0,0,0,0,0,0,0,0,0,0,0,0,0,0,0,0,0,0,0,0,0,0,0,0,0,
0,0,0,0,0,0,0,0,0,0,0,0,0,0,0,0,0,0,0,0,0,0,0,0,0,0,0,0,0,0,0,0,0,0,0,0,0,0,0,0,0,0,0,0,0,0,0,0,0,0,0,0,0,0,0,0,0,0,0,0,0,0,0,0,0,0,0,0,0,0,
0,0,0,0,0,0,0,0,0,0,0,0,0,0,0,0,0,0,0,0,0,0,0,0,0,0,0,0,0,0,0,0,0,0,0,0,0,0,0,0,0,0,0,0,0,0,0,0,0,0,0,0,0,0,0,0,0,0,0,0,0,0,0,0,0,0,0,0,0,0
</data>
 </layer>
 <layer id="6" name="Back2" width="70" height="52">
  <data encoding="csv">
0,0,0,0,0,0,0,0,0,0,0,0,0,0,0,0,0,0,0,0,0,0,0,0,0,0,0,0,0,0,0,0,0,0,0,0,0,0,0,0,0,0,0,0,0,0,0,0,0,0,0,0,0,0,0,0,0,0,0,0,0,0,0,0,0,0,0,0,0,0,
0,0,0,0,0,0,0,0,0,0,0,0,0,0,0,0,0,0,0,0,0,0,0,0,0,0,0,0,0,0,0,0,0,0,0,0,0,0,0,0,0,0,0,0,0,0,0,0,0,0,0,0,0,0,0,0,0,0,0,0,0,0,0,0,0,0,0,0,0,0,
0,0,0,0,0,0,0,0,0,0,0,0,0,0,0,0,0,0,0,0,0,0,0,0,0,0,0,0,0,0,0,0,0,0,0,0,0,0,0,0,0,0,0,0,0,0,0,0,0,0,0,0,0,0,0,0,0,0,0,0,0,0,0,0,0,0,0,0,0,0,
0,0,0,0,0,0,0,0,0,0,0,0,0,0,0,0,0,0,0,0,0,0,0,0,0,0,0,0,0,0,0,0,0,0,0,0,0,0,0,0,0,0,0,0,0,0,0,0,0,0,0,0,0,0,0,0,0,0,0,0,0,0,0,0,0,0,0,0,0,0,
0,0,0,0,0,0,0,0,0,0,0,0,0,0,0,0,0,0,0,0,0,0,0,0,0,0,0,0,0,0,0,0,0,0,0,0,0,0,0,0,0,0,0,0,0,0,0,0,0,0,0,0,0,0,0,0,0,0,0,0,0,0,0,0,0,0,0,0,0,0,
0,0,0,0,0,0,0,0,0,0,0,0,0,0,0,0,0,0,0,0,0,0,0,0,0,0,0,0,0,0,0,0,0,0,0,0,0,0,0,0,0,0,0,0,0,0,0,0,0,0,0,0,0,0,0,0,0,0,0,0,0,0,0,0,0,0,0,0,0,0,
0,0,0,0,0,0,0,0,0,0,0,0,0,0,0,0,0,0,0,0,0,0,0,0,0,0,0,0,0,0,0,0,0,0,0,0,0,0,0,0,0,0,0,0,0,0,0,0,0,0,0,0,0,0,0,0,0,0,0,0,0,0,0,0,0,0,0,0,0,0,
0,0,0,0,0,0,0,0,0,0,0,0,0,0,0,0,0,0,0,0,0,0,0,0,0,0,0,0,0,0,0,0,0,0,0,0,0,0,0,0,0,0,0,0,0,0,0,0,0,0,0,0,0,0,0,0,0,0,0,0,0,0,0,0,0,0,0,0,0,0,
0,0,0,0,0,0,0,0,0,0,0,0,0,0,0,0,0,0,0,0,0,0,0,0,0,0,0,0,0,0,0,0,0,0,0,0,0,0,0,0,0,0,0,0,0,0,0,0,0,0,0,0,0,0,0,0,0,0,0,0,0,0,0,0,0,0,0,0,0,0,
0,0,0,0,0,0,0,0,0,0,0,0,0,0,0,0,0,0,0,0,0,0,0,0,0,0,0,0,0,0,0,0,0,0,0,0,0,0,0,0,0,0,0,0,0,0,0,0,0,0,0,0,0,0,0,0,0,0,0,0,0,0,0,0,0,0,0,0,0,0,
0,0,0,0,0,0,0,0,0,0,0,0,0,0,0,0,0,0,0,0,0,0,0,0,0,0,0,0,0,0,0,0,0,0,0,0,0,0,0,0,0,0,0,0,0,0,0,0,0,0,0,0,0,0,0,0,0,0,0,0,0,0,0,0,0,0,0,0,0,0,
0,0,0,0,0,0,0,0,0,0,0,0,0,0,0,0,0,0,0,0,0,0,0,0,0,0,0,0,0,0,0,0,0,0,0,0,0,0,0,0,0,0,0,0,0,0,0,0,0,0,0,0,0,0,0,0,0,0,0,0,0,0,0,0,0,0,0,0,0,0,
0,0,0,0,0,0,0,0,0,0,0,0,0,0,0,0,0,0,0,0,0,0,0,0,0,0,0,0,0,0,0,0,0,0,0,0,0,0,0,0,0,0,0,0,0,0,0,0,0,0,0,0,0,0,0,0,0,0,0,0,0,0,0,0,0,0,0,0,0,0,
0,0,0,0,0,0,0,0,0,0,0,0,0,0,0,0,0,0,0,0,0,0,0,0,0,0,0,0,0,0,0,0,0,0,0,0,0,0,0,0,0,0,0,0,0,0,0,0,0,0,0,0,0,0,0,0,0,0,0,0,0,0,0,0,0,0,0,0,0,0,
0,0,0,0,0,0,0,0,0,0,0,0,0,0,0,0,0,0,0,0,0,0,0,0,0,0,0,0,0,0,0,0,0,0,0,0,0,0,0,0,0,0,0,0,0,0,0,0,0,0,0,0,0,0,0,0,0,0,0,0,0,0,0,0,0,0,0,0,0,0,
0,0,0,0,0,0,0,0,0,0,0,0,0,0,0,0,0,0,0,0,0,0,0,0,0,0,0,0,0,0,0,0,0,0,0,0,0,0,0,0,0,0,0,0,0,0,0,0,0,0,0,0,0,0,0,0,0,0,0,0,0,0,0,0,0,0,0,0,0,0,
0,0,0,0,0,0,0,0,0,0,0,0,0,0,0,0,0,0,0,0,0,0,0,0,0,0,0,0,0,0,0,0,0,0,0,0,0,0,0,0,0,0,0,0,0,0,0,0,0,0,0,0,0,0,0,0,0,0,0,0,0,0,0,0,0,0,0,0,0,0,
0,0,0,0,0,0,0,0,0,0,0,0,0,0,0,0,0,0,0,0,0,0,0,0,0,0,0,0,0,0,0,0,0,0,0,0,0,0,0,0,0,0,0,0,0,0,0,0,0,0,0,0,0,0,0,0,0,0,0,0,0,0,0,0,0,0,0,0,0,0,
0,0,0,0,0,0,0,0,0,0,0,0,0,0,0,0,0,0,0,0,0,0,0,0,0,0,0,0,0,0,0,0,0,0,0,0,0,0,0,0,0,0,0,0,0,0,0,0,0,0,0,0,0,0,0,0,0,0,0,0,0,0,0,0,0,0,0,0,0,0,
0,0,0,0,0,0,0,0,0,0,0,0,0,0,0,0,0,0,0,0,0,0,0,0,0,0,0,2305,2305,0,0,0,0,2305,0,0,0,0,0,0,0,0,0,0,0,0,2305,2305,0,0,0,0,0,0,0,0,0,0,0,0,0,0,0,0,0,0,0,0,0,0,
0,0,0,0,0,0,0,0,0,0,0,0,0,0,0,0,0,0,0,0,0,0,0,0,0,0,0,0,0,0,0,0,0,0,0,0,0,0,0,0,0,0,0,0,0,0,0,0,0,0,0,0,0,0,0,0,0,0,0,0,0,0,0,0,0,0,0,0,0,0,
0,0,0,0,0,0,0,0,0,0,0,0,0,0,0,0,0,0,0,0,0,0,0,0,0,0,0,0,0,0,0,0,0,0,0,0,0,0,0,0,0,0,0,0,0,0,0,0,0,0,0,0,0,0,0,0,0,0,0,0,0,0,0,0,0,0,0,0,0,0,
0,0,0,0,0,0,0,0,0,0,0,0,0,0,0,0,0,0,0,0,0,0,0,0,0,0,0,0,0,0,0,0,0,0,0,0,0,0,0,0,0,0,0,0,0,0,0,0,0,0,0,0,0,0,0,0,0,0,0,0,0,0,0,0,0,0,0,0,0,0,
0,0,0,0,0,0,0,0,0,0,0,0,0,0,0,0,0,0,0,0,0,0,0,0,0,0,0,0,0,0,0,0,0,0,0,0,0,0,0,0,0,0,0,0,0,0,0,0,0,0,0,0,0,0,0,0,0,0,0,0,0,0,0,0,0,0,0,0,0,0,
0,0,0,0,0,0,0,0,0,0,0,0,0,0,0,0,0,0,0,0,0,0,0,0,0,0,0,0,0,0,0,0,0,0,0,0,0,0,0,0,0,0,0,0,0,0,0,0,0,0,0,0,0,0,0,0,0,0,0,0,0,0,0,0,0,0,0,0,0,0,
0,0,0,0,0,0,0,0,0,0,0,0,0,0,0,0,0,0,0,0,0,0,0,0,0,0,0,0,0,0,0,0,0,0,0,0,0,0,0,0,0,0,0,0,0,0,0,0,0,0,0,0,0,0,0,0,0,0,0,0,0,0,0,0,0,0,0,0,0,0,
0,0,0,0,0,0,0,0,0,0,0,0,0,0,0,0,0,0,0,0,0,0,0,0,0,0,0,0,0,0,0,0,0,0,0,0,0,0,0,0,0,0,0,0,0,0,0,0,0,0,0,0,0,0,0,0,0,0,0,0,0,0,0,0,0,0,0,0,0,0,
0,0,0,0,0,0,0,0,0,0,0,0,0,0,0,0,0,0,0,0,0,0,0,0,0,0,0,0,0,0,0,0,0,0,0,0,0,0,0,0,0,0,0,0,0,0,0,0,0,0,0,0,0,0,0,0,0,0,0,0,0,0,0,0,0,0,0,0,0,0,
0,0,0,0,0,0,0,0,0,0,0,0,0,0,0,0,0,0,0,0,0,0,0,0,0,0,0,0,0,0,0,0,0,0,0,0,0,0,0,0,0,0,0,0,0,0,0,0,0,0,0,0,0,0,0,0,0,0,0,0,0,0,0,0,0,0,0,0,0,0,
0,0,0,0,0,0,0,0,0,0,0,0,0,0,0,0,0,0,0,0,0,0,0,0,0,0,0,0,0,0,0,0,0,0,0,0,0,0,0,0,0,0,0,0,0,0,0,0,0,0,0,0,0,0,0,0,0,0,0,0,0,0,0,0,0,0,0,0,0,0,
0,0,0,0,0,0,0,0,0,0,0,0,0,0,0,0,0,0,0,0,0,0,0,0,0,0,0,0,0,0,0,0,0,0,0,0,0,0,0,0,0,0,0,0,0,0,0,0,0,0,0,0,0,0,0,0,0,0,0,0,0,0,0,0,0,0,0,0,0,0,
0,0,0,0,0,0,0,0,0,0,0,0,0,0,0,0,0,0,0,0,0,0,0,0,0,0,0,0,0,0,0,0,0,0,0,0,0,0,0,0,0,0,0,0,0,0,0,0,0,0,0,0,0,0,0,0,0,0,0,0,0,0,0,0,0,0,0,0,0,0,
0,0,0,0,0,0,0,0,0,0,0,0,0,0,0,0,0,0,0,0,0,0,0,0,0,0,0,0,0,0,0,0,0,0,0,0,0,0,0,0,0,0,0,0,0,0,0,0,0,0,0,0,0,0,0,0,0,0,0,0,0,0,0,0,0,0,0,0,0,0,
0,0,0,0,0,0,0,0,0,0,0,0,0,0,0,0,0,0,0,0,0,0,0,0,0,0,0,0,0,0,0,0,0,0,0,0,0,0,0,0,0,0,0,0,0,0,0,0,0,0,0,0,0,0,0,0,0,0,0,0,0,0,0,0,0,0,0,0,0,0,
0,0,0,0,0,0,0,0,0,0,0,0,0,0,0,0,0,0,0,0,0,0,0,0,0,0,0,0,0,0,0,0,0,0,0,0,0,0,0,0,0,0,0,0,0,0,0,0,0,0,0,0,0,0,0,0,0,0,0,0,0,0,0,0,0,0,0,0,0,0,
0,0,0,0,0,0,0,0,0,0,0,0,0,0,0,0,0,0,0,0,0,0,0,0,0,0,0,0,0,0,0,0,0,0,0,0,0,0,0,0,0,0,0,0,0,0,0,0,0,0,0,0,0,0,0,0,0,0,0,0,0,0,0,0,0,0,0,0,0,0,
0,0,0,0,0,0,0,0,0,0,0,0,0,0,0,0,0,0,0,0,0,0,0,0,0,0,0,0,0,0,0,0,0,0,0,0,0,0,0,0,0,0,0,0,0,0,0,0,0,0,0,0,0,0,0,0,0,0,0,0,0,0,0,0,0,0,0,0,0,0,
0,0,0,0,0,0,0,0,0,0,0,0,0,0,0,0,0,0,0,0,0,0,0,0,0,0,0,0,0,0,0,0,0,0,0,0,0,0,0,0,0,0,0,0,0,0,0,0,0,0,0,0,0,0,0,0,0,0,0,0,0,0,0,0,0,0,0,0,0,0,
0,0,0,0,0,0,0,0,0,0,0,0,0,0,0,0,0,0,0,0,0,0,0,0,0,0,0,0,0,0,0,0,0,0,0,0,0,0,0,0,0,0,0,0,0,0,0,0,0,0,0,0,0,0,0,0,0,0,0,0,0,0,0,0,0,0,0,0,0,0,
0,0,0,0,0,0,0,0,0,0,0,0,0,0,0,0,0,0,0,0,0,0,0,0,0,0,0,0,0,0,0,0,0,0,0,0,0,0,0,0,0,0,0,0,0,0,0,0,0,0,0,0,0,0,0,0,0,2337,2337,0,0,0,0,0,0,0,0,0,0,0,
0,0,0,0,0,0,0,0,0,0,0,0,0,0,0,0,0,0,0,0,0,0,0,0,0,0,0,0,0,0,0,0,0,0,0,0,0,0,0,0,0,0,0,0,0,0,0,0,0,0,0,0,0,0,0,0,0,0,0,0,0,0,0,0,0,0,0,0,0,0,
0,0,0,0,0,0,0,0,0,0,0,0,0,0,0,0,0,0,0,0,0,0,0,0,0,0,0,0,0,0,0,0,0,0,0,0,0,0,0,0,0,0,0,0,0,0,0,0,0,0,0,0,0,0,0,0,0,0,0,0,0,0,0,0,0,0,0,0,0,0,
0,0,0,0,0,0,0,0,0,0,0,0,0,0,0,0,0,0,0,0,0,0,0,0,0,0,0,0,0,0,0,0,0,0,0,0,0,0,0,0,0,0,0,0,0,0,0,0,0,0,0,0,0,0,0,0,0,0,0,0,0,0,0,0,0,0,0,0,0,0,
0,0,0,0,0,0,0,0,0,0,0,0,0,0,0,0,0,0,0,0,0,0,0,0,0,0,0,0,0,0,0,0,0,0,0,0,0,0,0,0,0,0,0,0,0,0,0,0,0,0,0,0,0,0,0,0,0,0,0,0,0,0,0,0,0,0,0,0,0,0,
0,0,0,0,0,0,0,0,0,0,0,0,0,0,0,0,0,0,0,0,0,0,0,0,0,0,0,0,0,0,0,0,0,0,0,0,0,0,0,0,0,0,0,0,0,0,0,0,0,0,0,0,0,0,0,0,0,0,0,0,0,0,0,0,0,0,0,0,0,0,
0,0,0,0,0,0,0,0,0,0,0,0,0,0,0,0,0,0,0,0,0,0,0,0,0,0,0,0,0,0,0,0,0,0,0,0,0,0,0,0,0,0,0,0,0,0,0,0,0,0,0,0,0,0,0,0,0,0,0,0,0,0,0,0,0,0,0,0,0,0,
0,0,0,0,0,0,0,0,0,0,0,0,0,0,0,0,0,0,0,0,0,0,0,0,0,0,0,0,0,0,0,0,0,0,0,0,0,0,0,0,0,0,0,0,0,0,0,0,0,0,0,0,0,0,0,0,0,0,0,0,0,0,0,0,0,0,0,0,0,0,
0,0,0,0,0,0,0,0,0,0,0,0,0,0,0,0,0,0,0,0,0,0,0,0,0,0,0,0,0,0,0,0,0,0,0,0,0,0,0,0,0,0,0,0,0,0,0,0,0,0,0,0,0,0,0,0,0,0,0,0,0,0,0,0,0,0,0,0,0,0,
0,0,0,0,0,0,0,0,0,0,0,0,0,0,0,0,0,0,0,0,0,0,0,0,0,0,0,0,0,0,0,0,0,0,0,0,0,0,0,0,0,0,0,0,0,0,0,0,0,0,0,0,0,0,0,0,0,0,0,0,0,0,0,0,0,0,0,0,0,0,
0,0,0,0,0,0,0,0,0,0,0,0,0,0,0,0,3299,3300,0,0,0,0,0,0,0,0,0,0,0,0,0,0,0,0,0,0,0,0,0,0,0,0,0,0,0,0,0,0,0,0,0,0,0,0,0,0,0,0,0,0,0,0,0,0,0,0,0,0,0,0,
0,0,0,0,0,0,0,0,0,0,0,0,0,0,0,0,0,0,0,0,0,0,0,0,0,0,0,0,0,0,0,0,0,0,0,0,0,0,0,0,0,0,0,0,0,0,0,0,0,0,0,0,0,0,0,0,0,0,0,0,0,0,0,0,0,0,0,0,0,0,
0,0,0,0,0,0,0,0,0,0,0,0,0,0,0,0,0,0,0,0,0,0,0,0,0,0,0,0,0,0,0,0,0,0,0,0,0,0,0,0,0,0,0,0,0,0,0,0,0,0,0,0,0,0,0,0,0,0,0,0,0,0,0,0,0,0,0,0,0,0
</data>
 </layer>
 <layer id="7" name="Front2" width="70" height="52">
  <data encoding="csv">
0,0,0,0,0,0,0,0,0,0,0,0,0,0,0,0,0,0,0,0,0,0,0,0,0,0,0,0,0,0,0,0,0,0,0,0,0,0,0,0,0,0,0,0,0,0,0,0,0,0,0,0,0,0,0,0,0,0,0,0,0,0,0,0,0,0,0,0,0,0,
0,0,0,0,0,0,0,0,0,0,0,0,0,0,0,0,0,0,0,0,0,0,0,0,0,0,0,0,0,0,0,0,0,0,0,0,0,0,0,0,0,0,0,0,0,0,0,0,0,0,0,0,0,0,0,0,0,0,0,0,0,0,0,0,0,0,0,0,0,0,
0,0,0,0,0,0,0,0,0,0,0,0,0,0,0,0,0,0,0,0,0,0,0,0,0,0,0,0,0,0,0,0,0,0,0,0,0,0,0,0,0,0,0,0,0,0,0,0,0,0,0,0,0,0,0,0,0,0,0,0,0,0,0,0,0,0,0,0,0,0,
0,0,0,0,0,0,0,0,0,0,0,0,0,0,0,0,0,0,0,0,0,0,0,0,0,0,0,0,0,0,0,0,0,0,0,0,0,0,0,0,0,0,0,0,0,0,0,0,0,0,0,0,0,0,0,0,0,0,0,0,0,0,0,0,0,0,0,0,0,0,
0,0,0,0,0,0,0,0,0,0,0,0,0,0,0,0,0,0,0,0,0,0,0,0,0,0,0,0,0,0,0,0,0,0,0,0,0,0,0,0,0,0,0,0,0,0,0,0,0,0,0,0,0,0,0,0,0,0,0,0,0,0,0,0,0,0,0,0,0,0,
0,0,0,0,0,0,0,0,0,0,0,0,0,0,0,0,0,0,0,0,0,0,0,0,0,0,0,0,0,0,0,0,0,0,0,0,0,0,0,0,0,0,0,0,0,0,0,0,0,0,0,0,0,0,0,0,0,0,0,0,0,0,0,0,0,0,0,0,0,0,
0,0,0,0,0,0,0,0,0,0,0,0,0,0,0,0,0,0,0,0,0,0,0,0,0,0,0,0,0,0,0,0,0,0,0,0,0,0,0,0,0,0,0,0,0,0,0,0,0,0,0,0,0,0,0,0,0,0,0,0,0,0,0,0,0,0,0,0,0,0,
0,0,0,0,0,0,0,0,0,0,0,0,0,0,0,0,0,0,0,0,0,0,0,0,0,0,0,0,0,0,0,0,0,0,0,0,0,0,0,0,0,0,0,0,0,0,0,0,0,0,0,0,0,0,0,0,0,0,0,0,0,0,0,0,0,0,0,0,0,0,
0,0,0,0,0,0,0,0,0,0,0,0,0,0,0,0,0,0,0,0,0,0,0,0,0,0,0,0,0,0,0,0,0,0,0,0,0,0,0,0,0,0,0,0,0,0,0,0,0,0,0,0,0,0,0,0,0,0,0,0,0,0,0,0,0,0,0,0,0,0,
0,0,0,0,0,0,0,0,0,0,0,0,0,0,0,0,0,0,0,0,0,0,0,0,0,0,0,0,0,0,0,0,0,0,0,0,0,0,0,0,0,0,0,0,0,0,0,0,0,0,0,0,0,0,0,0,0,0,0,0,0,0,0,0,0,0,0,0,0,0,
0,0,0,0,0,0,0,0,0,0,0,0,0,0,0,0,0,0,0,0,0,0,0,0,0,0,0,0,0,0,0,0,0,0,0,0,0,0,0,0,0,0,0,0,0,0,0,0,0,0,0,0,0,0,0,0,0,0,0,0,0,0,0,0,0,0,0,0,0,0,
0,0,0,0,0,0,0,0,0,0,0,0,0,0,0,0,0,0,0,0,0,0,0,0,0,0,0,0,0,0,0,0,0,0,0,0,0,0,0,0,0,0,0,0,0,0,0,0,0,0,0,0,0,0,0,0,0,0,0,0,0,0,0,0,0,0,0,0,0,0,
0,0,0,0,0,0,0,0,0,0,0,0,0,0,0,0,0,0,0,0,0,0,0,0,0,0,0,0,0,0,0,0,0,0,0,0,0,0,0,0,0,0,0,0,0,0,0,0,0,0,0,0,0,0,0,0,0,0,0,0,0,0,0,0,0,0,0,0,0,0,
0,0,0,0,0,0,0,0,0,0,0,0,0,0,0,0,0,0,0,0,0,0,0,0,0,0,0,0,0,0,0,0,0,0,0,0,0,0,0,0,0,0,0,0,0,0,0,0,0,0,0,0,0,0,0,0,0,0,0,0,0,0,0,0,0,0,0,0,0,0,
0,0,0,0,0,0,0,0,0,0,0,0,0,0,0,0,0,0,0,0,0,0,0,0,0,0,0,0,0,0,0,0,0,0,0,0,0,0,0,0,0,0,0,0,0,0,0,0,0,0,0,0,0,0,0,0,0,0,0,0,0,0,0,0,0,0,0,0,0,0,
0,0,0,0,0,0,0,0,0,0,0,0,0,0,0,0,0,0,0,0,0,0,0,0,0,0,0,0,0,0,0,0,0,0,0,0,0,2676,0,0,0,0,0,0,0,0,0,0,0,0,0,0,0,0,0,0,0,0,0,0,0,0,0,0,0,0,0,0,0,0,
0,0,0,0,0,0,0,0,0,0,0,0,0,0,0,0,0,0,0,0,0,0,0,0,0,0,0,0,0,0,0,0,0,0,0,0,0,2708,0,0,0,0,0,0,0,0,0,0,0,0,0,0,0,0,0,0,0,0,0,0,0,0,0,0,0,0,0,0,0,0,
0,0,0,0,0,0,0,0,0,0,0,0,0,0,0,0,0,0,0,0,0,0,0,0,0,0,0,0,0,0,0,0,0,0,0,0,0,0,0,0,0,0,0,0,0,0,0,0,0,0,0,0,0,0,0,0,0,0,0,0,0,0,0,0,0,0,0,0,0,0,
0,0,0,0,0,0,0,0,0,0,0,0,0,0,0,0,0,0,0,0,0,0,0,0,0,0,0,0,0,0,0,0,0,0,0,0,0,0,0,0,0,0,0,0,0,0,0,0,0,0,0,0,0,0,0,0,0,0,0,0,0,0,0,0,0,0,0,0,0,0,
0,0,0,0,0,0,0,0,0,0,0,0,0,0,0,0,0,0,0,0,0,0,0,0,0,0,0,0,0,0,0,0,0,0,0,0,0,0,0,0,0,0,0,0,0,0,0,0,0,0,0,0,0,0,0,0,0,0,0,0,0,0,0,0,0,0,0,0,0,0,
0,0,0,0,0,0,0,0,0,0,0,0,0,0,0,0,0,0,0,0,0,0,0,0,0,0,0,0,0,0,0,0,0,0,0,0,0,0,0,0,0,0,0,0,0,0,0,0,0,0,0,0,0,0,0,0,0,0,0,0,0,0,0,0,0,0,0,0,0,0,
0,0,0,0,0,0,0,0,0,0,0,0,0,0,0,0,0,0,0,0,0,0,0,0,0,0,0,0,0,0,0,0,0,0,0,0,0,0,0,0,0,0,0,0,0,0,0,0,0,0,0,0,0,0,0,0,0,0,0,0,0,0,0,0,0,0,0,0,0,0,
0,0,0,0,0,0,0,0,0,0,0,0,0,0,0,0,0,0,0,0,0,0,0,0,0,0,0,0,0,0,0,0,0,0,0,0,0,0,0,0,0,0,0,0,0,0,0,0,0,0,0,0,0,0,0,0,0,0,0,0,0,0,0,0,0,0,0,0,0,0,
0,0,0,0,0,0,0,0,0,0,0,0,0,0,0,0,0,0,0,0,0,0,0,0,0,0,0,0,0,0,0,0,0,0,0,0,0,0,0,0,0,0,0,0,0,0,0,0,0,0,0,0,0,0,0,0,0,0,0,0,0,0,0,0,0,0,0,0,0,0,
0,0,0,0,0,0,0,0,0,0,0,0,0,0,0,0,0,0,0,0,0,0,0,0,0,0,0,0,0,0,0,0,0,0,0,0,0,0,0,0,0,0,0,0,0,0,0,0,0,0,0,0,0,0,0,0,0,0,0,0,0,0,0,0,0,0,0,0,0,0,
0,0,0,0,0,0,0,0,0,0,0,0,0,0,0,0,0,0,0,0,0,0,0,0,0,0,0,0,0,0,0,0,0,0,0,0,0,0,0,0,0,0,0,0,0,0,0,0,0,0,0,0,0,0,0,0,0,0,0,0,0,0,0,0,0,0,0,0,0,0,
0,0,0,0,0,0,0,0,0,0,0,0,0,0,0,0,0,0,0,0,0,0,0,0,0,0,0,0,0,0,0,0,0,0,0,0,0,0,0,0,0,0,0,0,0,0,0,0,0,0,0,0,0,0,0,0,0,0,0,0,0,0,0,0,0,0,0,0,0,0,
0,0,0,0,0,0,0,0,0,0,0,0,0,0,0,0,0,0,0,0,0,0,0,0,0,0,0,0,0,0,0,0,0,0,0,0,0,0,0,0,0,0,0,0,0,0,0,0,0,0,0,0,0,0,0,0,0,0,0,0,0,0,0,0,0,0,0,0,0,0,
0,0,0,0,0,0,0,0,0,0,0,0,0,0,0,0,0,0,0,0,0,0,0,0,0,0,0,0,0,0,0,0,0,0,0,0,0,0,0,0,0,0,0,0,0,0,0,0,0,0,0,0,0,0,0,0,0,0,0,0,0,0,0,0,0,0,0,0,0,0,
0,0,0,0,0,0,0,0,0,0,0,0,0,0,0,0,0,0,0,0,0,0,0,0,0,0,0,0,0,0,0,0,0,0,0,0,0,0,0,0,0,0,0,0,0,0,0,0,0,0,0,0,0,0,0,0,0,0,0,0,0,0,0,0,0,0,0,0,0,0,
0,0,0,0,0,0,0,0,0,0,0,0,0,0,0,0,0,0,0,0,0,0,0,0,0,0,0,0,0,0,0,0,0,0,0,0,0,0,0,0,0,0,0,0,0,0,0,0,0,0,0,0,0,0,0,0,0,0,0,0,0,0,0,0,0,0,0,0,0,0,
0,0,0,0,0,0,0,0,0,0,0,0,0,0,0,0,0,0,0,0,0,0,0,0,0,0,0,0,0,0,0,0,0,0,0,0,0,0,0,0,0,0,0,0,0,0,0,0,0,0,0,0,0,0,0,0,0,0,0,0,0,0,0,0,0,0,0,0,0,0,
0,0,0,0,0,0,0,0,0,0,0,0,0,0,0,0,0,0,0,0,0,0,0,0,0,0,0,0,0,0,0,0,0,0,0,0,0,0,0,0,0,0,0,0,0,0,0,0,0,0,0,0,0,0,0,0,0,0,0,0,0,0,0,0,0,0,0,0,0,0,
0,0,0,0,0,0,0,0,0,0,0,0,0,0,0,0,0,0,0,0,0,0,0,0,0,0,0,0,0,0,0,0,0,0,0,0,0,0,0,0,0,0,0,0,0,0,0,0,0,0,0,0,0,0,0,0,0,0,0,0,0,0,0,0,0,0,0,0,0,0,
0,0,0,0,0,0,0,0,0,0,0,0,0,0,0,0,0,0,0,0,0,0,0,0,0,0,0,0,0,0,0,0,0,0,0,0,0,0,0,0,0,0,0,0,0,0,0,0,0,0,0,0,0,0,0,0,0,0,0,0,0,0,0,0,0,0,0,0,0,0,
0,0,0,0,0,0,0,0,0,0,0,0,0,0,0,0,0,0,0,0,0,0,0,0,0,0,0,0,0,0,0,0,0,0,0,0,0,0,0,0,0,0,0,0,0,0,0,0,0,0,0,0,0,0,0,0,0,0,0,0,0,0,0,0,0,0,0,0,0,0,
0,0,0,0,0,0,0,0,0,0,0,0,0,0,0,0,0,0,0,0,0,0,0,0,0,0,0,0,0,0,0,0,0,0,0,0,0,0,0,0,0,0,0,0,0,0,0,0,0,0,0,0,0,0,0,0,0,0,0,0,0,0,0,0,0,0,0,0,0,0,
0,0,0,0,0,0,0,0,0,0,0,0,0,0,0,0,0,0,0,0,0,0,0,0,0,0,0,0,0,0,0,0,0,0,0,0,0,0,0,0,0,0,0,0,0,0,0,0,0,0,0,0,0,0,0,0,0,0,0,0,0,0,0,0,0,0,0,0,0,0,
0,0,0,0,0,0,0,0,0,0,0,0,0,0,0,0,0,0,0,0,0,0,0,0,0,0,0,0,0,0,0,0,0,0,0,0,0,0,0,0,0,0,0,0,0,0,0,0,0,0,0,0,0,0,0,0,0,0,0,0,0,0,0,0,0,0,0,0,0,0,
0,0,0,0,0,0,0,0,0,0,0,0,0,0,0,0,0,0,0,0,0,0,0,0,0,0,0,0,0,0,0,0,0,0,0,0,0,0,0,0,0,0,0,0,0,0,0,0,0,0,0,0,0,0,0,0,0,0,0,0,0,0,0,0,0,0,0,0,0,0,
0,0,0,0,0,0,0,0,0,0,0,0,0,0,0,0,0,0,0,0,0,0,0,0,0,0,0,0,0,0,0,0,0,0,0,0,0,0,0,0,0,0,0,0,0,0,0,0,0,0,0,0,0,0,0,0,0,0,0,0,0,0,0,0,0,0,0,0,0,0,
0,0,0,0,0,0,0,0,0,0,0,0,0,0,0,0,0,0,0,0,0,0,0,0,0,0,0,0,0,0,0,0,0,0,0,0,0,0,0,0,0,0,0,0,0,0,0,0,0,0,0,0,0,0,0,0,0,0,0,0,0,0,0,0,0,0,0,0,0,0,
0,0,0,0,0,0,0,0,0,0,0,0,0,0,0,0,0,0,0,0,0,0,0,0,0,0,0,0,0,0,0,0,0,0,0,0,0,0,0,0,0,0,0,0,0,0,0,0,0,0,0,0,0,0,0,0,0,0,0,0,0,0,0,0,0,0,0,0,0,0,
0,0,0,0,0,0,0,0,0,0,0,0,0,0,0,0,0,0,0,0,0,0,0,0,0,0,0,0,0,0,0,0,0,0,0,0,0,0,0,0,0,0,0,0,0,0,0,0,0,0,0,0,0,0,0,0,0,0,0,0,0,0,0,0,0,0,0,0,0,0,
0,0,0,0,0,0,0,0,0,0,0,0,0,0,0,0,0,0,0,0,0,0,0,0,0,0,0,0,0,0,0,0,0,0,0,0,0,0,0,0,0,0,0,0,0,0,0,0,0,0,0,0,0,0,0,0,0,0,0,0,0,0,0,0,0,0,0,0,0,0,
0,0,0,0,0,0,0,0,0,0,0,0,0,0,0,0,0,0,0,0,0,0,0,0,0,0,0,0,0,0,0,0,0,0,0,0,0,0,0,0,0,482,0,0,0,0,0,0,0,0,0,0,0,0,0,0,0,0,0,0,0,0,0,0,0,0,0,0,0,0,
0,0,0,0,0,0,0,0,0,0,0,0,0,0,0,0,0,0,0,0,0,0,0,0,0,0,0,0,0,0,0,0,0,0,0,0,0,0,0,0,0,0,0,0,0,0,0,0,0,0,0,0,0,0,0,0,0,0,0,0,0,0,0,0,0,0,0,0,0,0,
0,0,0,0,0,0,0,0,0,0,0,0,0,0,0,0,0,0,0,0,0,0,0,0,0,0,0,0,0,0,0,0,0,0,0,0,0,0,0,0,0,0,0,0,0,0,0,0,0,0,0,0,0,0,0,0,0,0,0,0,0,0,0,0,0,0,0,0,0,0,
0,0,0,0,0,0,0,0,0,0,0,0,0,0,0,0,0,0,0,0,0,0,0,0,0,0,0,0,0,0,0,0,0,0,0,0,0,0,0,0,0,0,0,0,0,0,0,0,0,0,0,0,0,0,0,0,0,0,0,0,0,0,0,0,0,0,0,0,0,0,
0,0,0,0,0,0,0,0,0,0,0,0,0,0,0,0,0,0,0,0,0,0,0,0,0,0,0,0,0,0,0,0,0,0,0,0,0,0,0,0,0,0,0,0,0,0,0,0,0,0,0,0,0,0,0,0,0,0,0,0,0,0,0,0,0,0,0,0,0,0,
0,0,0,0,0,0,0,0,0,0,0,0,0,0,0,0,0,0,0,0,0,0,0,0,0,0,0,0,0,0,0,0,0,0,0,0,0,0,0,0,0,0,0,0,0,0,0,0,0,0,0,0,0,0,0,0,0,0,0,0,0,0,0,0,0,0,0,0,0,0,
0,0,0,0,0,0,0,0,0,0,0,0,0,0,0,0,0,0,0,0,0,0,0,0,0,0,0,0,0,0,0,0,0,0,0,0,0,0,0,0,0,0,0,0,0,0,0,0,0,0,0,0,0,0,0,0,0,0,0,0,0,0,0,0,0,0,0,0,0,0
</data>
 </layer>
</map>
